G40 (disable tool radius compensation)
G49 (disable tool length compensation)
G80 (cancel modal motion)
G54 (select coordinate system 1)
G90 (disable incremental moves)
G21 (metric)
F1000.00000
S250.00000
G61 (exact path mode)
;PYCAM_TOOLPATH_SETTINGS: START
;[Bounds]
;maxz = 0.0
;maxx = 669.071528
;maxy = 798.865733
;minx = 11.003461
;miny = 58.52693
;minz = 0.0
;
;[Tool]
;torus_radius = 0.125
;shape = CylindricalCutter
;tool_radius = 0.5
;
;[Process]
;engrave_offset = 0.0
;step_down = 3.0
;generator = EngraveCutter
;postprocessor = SimpleCutter
;overlap_percent = 0
;milling_style = ignore
;material_allowance = 0.0
;pocketing_type = none
;path_direction = x
;
;PYCAM_TOOLPATH_SETTINGS: END
G0 Z25.00000
M3 (start spindle)
G04 P3 (wait for 3 seconds)
 X313.50000 Y798.36282
G1 Z0.00000
 X295.90635 Y796.21523
 X279.65388 Y793.60781
 X264.51352 Y790.50325
 X250.26843 Y786.85948
 X246.06979 Y785.67121
 X242.36948 Y784.62895
 X239.22013 Y783.74558
 X238.50000 Y783.55404
 X237.98338 Y783.40575
 X237.20625 Y783.14649
 X236.33906 Y782.83818
 X235.50000 Y782.52046
 X234.14829 Y781.99352
 X229.99397 Y780.37825
 X225.04820 Y778.45596
 X219.56456 Y776.32542
 X197.70053 Y766.74317
 X175.08649 Y754.68196
 X153.19081 Y740.99887
 X133.48219 Y726.53842
 X117.84018 Y712.88676
 X100.58708 Y695.50956
 X84.24283 Y677.15746
 X71.38045 Y660.50000
 X48.77127 Y623.63909
 X31.23144 Y584.39090
 X18.95117 Y543.13372
 X12.03328 Y500.27927
 X11.16717 Y486.07807
 X11.00346 Y467.71535
 X11.45399 Y449.30055
 X12.54098 Y434.90279
 X19.20735 Y395.55935
 X30.35888 Y357.67544
 X45.89366 Y321.63083
 X65.64764 Y287.77902
 X68.46563 Y283.50313
 X70.84025 Y279.77093
 X72.84139 Y276.53259
 X73.00000 Y275.97059
 X73.06445 Y275.63835
 X73.25380 Y275.30490
 X73.53371 Y275.02084
 X73.86401 Y274.83333
 X74.41139 Y274.44741
 X76.91751 Y271.51354
 X79.79540 Y268.04823
 X83.04564 Y264.00000
 X91.74111 Y253.72686
 X103.24130 Y241.42303
 X115.23344 Y229.42513
 X125.50000 Y220.07772
 X193.08021 Y175.16018
 X268.97847 Y148.26887
 X349.45616 Y140.83408
 X430.50000 Y153.13732
 X434.85873 Y154.36456
 X438.85625 Y155.53894
 X442.19437 Y156.56046
 X443.50000 Y157.04616
 X444.77324 Y157.56662
 X447.85000 Y158.73676
 X451.52434 Y160.11299
 X455.50000 Y161.57928
 X516.14403 Y191.57899
 X569.94110 Y234.30179
 X614.02962 Y287.38153
 X645.96928 Y348.00000
 X659.51693 Y390.22442
 X667.27446 Y434.35170
 X669.07153 Y479.30692
 X664.84581 Y524.00000
 X656.82748 Y559.85391
 X644.60215 Y595.01888
 X628.42970 Y628.79506
 X608.61955 Y660.50000
 X595.75717 Y677.15746
 X579.41292 Y695.50956
 X562.15982 Y712.88676
 X546.51781 Y726.53842
 X533.83907 Y736.06159
 X519.20624 Y745.94622
 X504.22658 Y755.17005
 X490.50000 Y762.68452
 X464.14852 Y774.86076
 X438.31850 Y784.28817
 X411.70489 Y791.38062
 X383.00000 Y796.54653
 X371.13973 Y797.62941
 X347.74229 Y798.42335
 X324.29143 Y798.86573
G0 Z25.00000
 X348.35847 Y790.30437
G1 Z0.00000
 X362.52155 Y778.05742
 X374.96480 Y766.01747
 X386.23846 Y753.62596
 X396.88086 Y740.32735
 X402.35258 Y732.62755
 X408.53815 Y723.11188
 X414.67401 Y713.27741
 X414.55109 Y712.21776
 X414.17064 Y712.10480
 X410.69795 Y712.85073
 X406.69266 Y713.77656
 X402.01652 Y714.95506
 X390.60750 Y717.56811
 X378.02529 Y719.77076
 X365.02326 Y721.45302
 X352.34320 Y722.50060
 X340.18641 Y723.20981
 X333.81400 Y728.85490
 X316.05426 Y743.21561
 X296.68757 Y756.26418
 X276.30406 Y767.63115
 X255.50000 Y776.95720
 X251.22653 Y778.67357
 X247.49430 Y780.23358
 X244.34040 Y781.59773
 X243.69335 Y782.00817
 X243.76261 Y782.39215
 X246.59185 Y783.41534
 X250.22155 Y784.57062
 X254.69335 Y785.80832
 X273.96569 Y790.29032
 X293.43399 Y793.68530
 X312.44953 Y795.89864
 X330.35847 Y796.83190
 X340.21693 Y797.00000
G0 Z25.00000
 X380.88238 Y794.47443
G1 Z0.00000
 X392.75355 Y792.80457
 X403.98797 Y790.81199
 X415.08949 Y788.39853
 X426.56074 Y785.46405
 X431.50146 Y784.09163
 X435.71967 Y782.87928
 X439.41135 Y781.79147
 X439.73343 Y781.59990
 X439.88881 Y780.95749
 X429.49094 Y748.59739
 X419.46898 Y717.47844
 X418.06887 Y714.20250
 X417.47696 Y714.10564
 X416.16735 Y715.51333
 X414.37182 Y717.97925
 X412.02150 Y721.70250
 X399.97411 Y739.70787
 X386.27347 Y756.80522
 X370.81458 Y773.10680
 X353.50000 Y788.72864
 X350.01457 Y791.65444
 X346.99687 Y794.20119
 X344.39360 Y796.40773
 X344.00000 Y796.77202
 X344.24590 Y797.31785
 X357.27121 Y796.54247
 X370.14921 Y795.59438
G0 Z25.00000
 X448.19372 Y770.15091
G1 Z0.00000
 X457.45191 Y754.67531
 X465.84956 Y738.33470
 X473.09589 Y721.73903
 X478.89970 Y705.50000
 X482.43241 Y693.66527
 X484.89125 Y683.80290
 X486.48303 Y675.85790
 X485.66503 Y674.52485
 X484.90563 Y674.33519
 X482.93285 Y673.94338
 X480.57443 Y673.49666
 X478.00000 Y673.03287
 X458.84841 Y668.60369
 X439.00844 Y661.93863
 X420.09699 Y653.66664
 X403.75000 Y644.40637
 X401.16012 Y642.80124
 X398.98281 Y641.61158
 X397.29720 Y640.82750
 X397.00000 Y641.02321
 X397.35059 Y643.23087
 X407.67862 Y674.89007
 X418.16479 Y706.97275
 X418.87612 Y708.00000
 X419.12505 Y708.30631
 X419.35424 Y708.84740
 X419.53281 Y709.50184
 X419.62766 Y710.18264
 X420.31221 Y713.66485
 X430.63245 Y745.53466
 X441.35766 Y778.56019
 X441.96206 Y778.99523
 X442.28747 Y778.82621
 X444.01451 Y776.39524
 X445.97226 Y773.53985
G0 Z25.00000
 X473.00000 Y768.81954
G1 Z0.00000
 X487.10412 Y762.11554
 X502.16114 Y754.01805
 X516.31517 Y745.59483
 X527.57944 Y737.93585
 X532.65888 Y734.18891
 X536.34445 Y719.34446
 X540.27608 Y701.81879
 X542.68242 Y686.91202
 X543.96460 Y671.76971
 X544.42326 Y653.50000
 X544.39348 Y644.34610
 X544.23977 Y635.86511
 X544.00471 Y628.75752
 X543.69086 Y625.76419
 X542.88171 Y621.02839
 X536.73072 Y628.76419
 X529.04683 Y637.65675
 X518.13885 Y648.88065
 X506.83697 Y659.71620
 X497.87611 Y667.35610
 X489.25222 Y674.12296
 X486.52269 Y685.81148
 X480.45323 Y707.13553
 X471.89241 Y729.72565
 X461.79277 Y751.36703
 X451.07962 Y769.80684
 X448.74906 Y773.40467
 X446.78589 Y776.50259
 X445.08616 Y779.22975
 X445.00000 Y779.53169
 X445.47050 Y779.85723
 X454.46277 Y776.44345
 X463.82846 Y772.72735
G0 Z25.00000
 X545.89014 Y724.25000
G1 Z0.00000
 X560.07877 Y711.88980
 X575.46042 Y696.73534
 X589.94766 Y680.99024
 X601.37416 Y666.84390
 X604.09414 Y663.18780
 X574.98513 Y641.98917
 X563.80286 Y633.88609
 X554.34321 Y627.12184
 X545.85703 Y621.10809
 X545.59123 Y621.14527
 X545.49316 Y621.45053
 X545.62062 Y623.59892
 X545.81103 Y626.09964
 X546.09135 Y629.00000
 X546.74310 Y638.94079
 X546.90265 Y652.72852
 X546.63982 Y666.73774
 X545.92083 Y677.57632
 X544.56993 Y688.47655
 X542.48536 Y701.07331
 X540.04811 Y713.36167
 X537.61617 Y723.25000
 X536.72532 Y726.60563
 X536.06554 Y729.42969
 X535.57794 Y731.79582
 X535.74559 Y732.00000
 X536.13180 Y731.87032
 X538.95509 Y729.72344
 X542.17462 Y727.22077
G0 Z25.00000
 X487.48317 Y669.75000
G1 Z0.00000
 X489.15903 Y658.36884
 X489.87424 Y640.76327
 X489.71434 Y622.39114
 X488.50533 Y607.70046
 X487.17730 Y599.39209
 X485.02946 Y588.80469
 X482.65080 Y578.08242
 X481.70922 Y576.37589
 X481.47138 Y576.38007
 X480.37645 Y577.58186
 X479.09584 Y579.09089
 X477.63811 Y580.94730
 X469.80623 Y590.09307
 X459.65418 Y599.95591
 X448.35385 Y609.50952
 X437.00000 Y617.74945
 X429.91097 Y622.10389
 X420.69741 Y627.07846
 X411.48165 Y631.61785
 X404.50000 Y634.51666
 X402.52071 Y635.26746
 X400.70917 Y636.02345
 X399.21708 Y636.70551
 X398.61631 Y637.09897
 X398.67728 Y638.24649
 X404.99918 Y642.52210
 X412.54876 Y647.15517
 X420.80255 Y651.62641
 X433.20963 Y657.41827
 X446.11483 Y662.38872
 X459.66347 Y666.58653
 X474.00000 Y670.06207
 X481.55598 Y671.57311
 X484.83134 Y671.84104
 X486.53396 Y671.23489
G0 Z25.00000
 X503.01778 Y660.18352
G1 Z0.00000
 X512.10241 Y652.06739
 X520.43375 Y643.89525
 X528.21914 Y635.45419
 X535.66503 Y626.53173
 X538.87920 Y622.37000
 X540.45994 Y619.92926
 X541.04976 Y618.35160
 X540.74601 Y617.34630
 X538.30306 Y615.28308
 X512.01757 Y596.17359
 X484.69660 Y576.32825
 X484.31895 Y576.35442
 X484.27102 Y576.51816
 X484.73322 Y578.43269
 X485.28896 Y580.62028
 X485.98349 Y583.18456
 X489.78961 Y601.42255
 X491.87999 Y622.69594
 X492.15458 Y644.59066
 X490.46713 Y664.75000
 X490.24651 Y666.80273
 X490.20923 Y668.48825
 X490.31920 Y669.72351
 X490.63895 Y670.00000
 X491.24503 Y669.79146
 X494.64509 Y667.11641
 X498.55196 Y663.94610
G0 Z25.00000
 X508.50000 Y569.88896
G1 Z0.00000
 X516.61603 Y568.60732
 X526.23023 Y566.54619
 X536.22745 Y563.98283
 X545.55598 Y561.15906
 X553.02496 Y558.44197
 X564.18168 Y553.85400
 X575.78704 Y548.90111
 X577.79435 Y547.53898
 X577.95107 Y546.34249
 X571.61012 Y535.48269
 X565.24041 Y525.03836
 X559.69842 Y516.79939
 X552.43455 Y507.21111
 X544.59755 Y497.94870
 X536.61066 Y489.48415
 X528.90139 Y482.30512
 X525.35509 Y479.26926
 X522.15422 Y476.59116
 X519.43704 Y474.36613
 X518.58203 Y473.78597
 X517.91257 Y473.93253
 X517.39767 Y475.03097
 X516.97821 Y477.37916
 X516.56592 Y481.77609
 X513.21290 Y504.90371
 X506.94465 Y527.65099
 X497.96656 Y549.35093
 X486.52525 Y569.35238
 X484.63581 Y572.20477
 X492.56791 Y571.53827
 X496.18343 Y571.21221
 X500.51995 Y570.77886
 X504.86274 Y570.31370
G0 Z25.00000
 X489.59888 Y560.00000
G1 Z0.00000
 X496.72921 Y546.89743
 X502.78287 Y533.06098
 X507.69263 Y518.65164
 X511.39918 Y503.83437
 X512.52720 Y497.20879
 X513.76749 Y487.15633
 X514.96456 Y476.28291
 X514.60956 Y475.27623
 X514.40390 Y475.28675
 X512.49016 Y477.65038
 X510.31541 Y480.41332
 X507.78518 Y483.74904
 X501.15973 Y491.93090
 X493.50598 Y500.13261
 X485.42112 Y507.75836
 X477.50000 Y514.20302
 X468.94608 Y519.87003
 X458.04712 Y525.76846
 X447.15628 Y530.78293
 X438.81747 Y533.54473
 X434.51659 Y534.64115
 X433.07196 Y535.24176
 X432.88173 Y535.85803
 X433.54505 Y536.62772
 X434.95462 Y537.61247
 X441.53511 Y542.40044
 X449.23660 Y548.02054
 X458.00000 Y554.43737
 X466.72488 Y560.74566
 X474.29808 Y566.02504
 X480.90946 Y570.50083
 X481.88709 Y570.71759
 X482.66623 Y570.25398
 X484.72461 Y567.47954
 X487.07475 Y564.03928
G0 Z25.00000
 X455.00000 Y581.09357
G1 Z0.00000
 X463.46098 Y578.79339
 X471.37613 Y576.23890
 X478.29028 Y573.73132
 X478.75355 Y572.76064
 X478.34746 Y572.19379
 X471.35587 Y566.89755
 X463.38655 Y560.93939
 X453.98057 Y554.03298
 X429.50000 Y536.18252
 X427.10135 Y539.34126
 X419.01667 Y548.26381
 X407.67908 Y557.83403
 X395.51473 Y566.28804
 X384.86367 Y571.73223
 X382.24129 Y572.83878
 X380.02999 Y573.87259
 X378.21919 Y574.79706
 X378.01232 Y575.13190
 X378.64783 Y576.02192
 X386.89093 Y578.61786
 X395.13285 Y580.97668
 X402.00000 Y582.52718
 X412.74395 Y583.66713
 X428.63453 Y583.65674
 X444.47593 Y582.81107
G0 Z25.00000
 X401.41605 Y633.56782
G1 Z0.00000
 X420.49400 Y624.96194
 X438.91139 Y613.77242
 X455.90463 Y600.50762
 X470.72788 Y585.70164
 X473.50001 Y582.51798
 X475.83907 Y579.74698
 X477.83526 Y577.32304
 X477.97788 Y576.94766
 X477.78545 Y576.79066
 X475.46541 Y577.38155
 X472.69284 Y578.16417
 X469.39374 Y579.20038
 X446.90905 Y584.61843
 X423.77819 Y586.47283
 X401.73070 Y584.72407
 X382.49551 Y579.38765
 X379.92907 Y578.39388
 X377.47278 Y577.51176
 X375.38104 Y576.81946
 X374.32042 Y576.57401
 X373.62360 Y576.35974
 X373.02993 Y575.94903
 X372.62791 Y575.41042
 X372.48359 Y574.82516
 X372.31222 Y573.71602
 X369.84004 Y565.63211
 X366.94267 Y556.34570
 X363.50729 Y545.60675
 X354.54741 Y517.86747
 X352.44195 Y524.68374
 X346.69916 Y538.35919
 X338.31807 Y550.91729
 X327.54358 Y561.98096
 X314.69849 Y571.21997
 X311.76745 Y573.07404
 X309.76376 Y574.60301
 X308.55911 Y575.83893
 X308.42474 Y576.66446
 X308.83150 Y577.49846
 X310.00517 Y579.41421
 X311.45081 Y581.67499
 X313.06382 Y584.09398
 X323.24805 Y596.61123
 X336.42996 Y608.57002
 X351.47536 Y619.06836
 X367.25282 Y627.21972
 X373.53488 Y629.69955
 X382.16641 Y632.66939
 X390.73343 Y635.41636
 X393.72717 Y635.94329
 X394.50669 Y635.85420
 X396.49199 Y635.26889
 X398.85167 Y634.49520
G0 Z25.00000
 X371.50000 Y718.39803
G1 Z0.00000
 X385.67683 Y716.24418
 X400.63167 Y713.17107
 X414.67869 Y709.81339
 X416.02049 Y708.15260
 X415.59897 Y705.25108
 X405.20205 Y673.94227
 X394.51965 Y641.87970
 X393.91918 Y641.75432
 X393.56192 Y642.29926
 X392.82969 Y643.95691
 X392.00481 Y645.96574
 X391.15422 Y648.20539
 X387.91487 Y655.94488
 X382.92679 Y666.00394
 X377.37709 Y676.19454
 X372.28315 Y684.50000
 X367.34191 Y691.70288
 X362.40015 Y698.30566
 X356.81308 Y705.13946
 X349.87617 Y713.08199
 X343.09102 Y720.66399
 X351.29551 Y720.26909
 X355.28002 Y720.01520
 X360.61493 Y719.55657
 X366.30518 Y718.99221
G0 Z25.00000
 X347.72472 Y712.25000
G1 Z0.00000
 X358.52319 Y699.58017
 X367.27897 Y687.95214
 X374.77447 Y676.27944
 X381.74193 Y663.50000
 X385.54104 Y655.61010
 X388.98592 Y647.75622
 X391.98137 Y640.45513
 X391.77495 Y639.44162
 X391.50289 Y639.36056
 X389.60531 Y639.76926
 X387.38874 Y640.29793
 X384.81544 Y640.98349
 X374.15812 Y643.55540
 X364.08316 Y645.19563
 X353.19795 Y646.08542
 X340.00000 Y646.37223
 X326.80205 Y646.08542
 X315.91684 Y645.19563
 X305.84188 Y643.55540
 X295.18456 Y640.98349
 X292.61126 Y640.29793
 X290.39469 Y639.76926
 X288.49711 Y639.36056
 X288.22505 Y639.44162
 X288.02285 Y640.42900
 X290.96264 Y647.64164
 X294.31898 Y655.34845
 X297.98154 Y663.00000
 X302.66850 Y671.80032
 X307.96549 Y680.68991
 X313.59981 Y689.23536
 X319.29955 Y697.00000
 X324.77428 Y703.71843
 X331.67525 Y711.58608
 X338.82993 Y719.47635
 X340.01695 Y720.00000
 X340.50540 Y719.80072
 X342.59921 Y717.72344
 X345.01035 Y715.22037
G0 Z25.00000
 X369.50000 Y641.94193
G1 Z0.00000
 X374.04141 Y641.12748
 X378.59062 Y640.22852
 X382.56256 Y639.37172
 X385.00000 Y638.73780
 X389.50000 Y637.40567
 X379.50000 Y634.08187
 X363.87273 Y627.97634
 X349.76044 Y620.55602
 X336.86838 Y611.63496
 X324.89223 Y601.04126
 X320.87632 Y596.88036
 X316.75438 Y592.26647
 X313.10863 Y587.88754
 X310.68068 Y584.56800
 X308.70783 Y581.72946
 X307.17062 Y579.85791
 X306.08730 Y578.90701
 X305.59020 Y579.06800
 X301.90590 Y590.20794
 X295.02609 Y611.69972
 X287.19080 Y636.29571
 X287.26685 Y636.57914
 X288.61354 Y637.27857
 X299.72896 Y639.73495
 X310.08454 Y641.90460
 X316.50000 Y642.96613
 X329.73996 Y644.19669
 X343.03448 Y644.43617
 X356.31173 Y643.68320
G0 Z25.00000
 X385.66111 Y568.99962
G1 Z0.00000
 X393.90597 Y564.69477
 X402.49061 Y559.09238
 X410.80660 Y552.63346
 X418.25000 Y545.74774
 X421.60306 Y542.26051
 X424.42969 Y539.12263
 X426.71859 Y536.42390
 X427.00000 Y535.64460
 X426.42073 Y534.48630
 X405.02395 Y518.46387
 X384.52950 Y503.19146
 X380.93668 Y501.19352
 X380.73136 Y501.36376
 X381.08323 Y502.97648
 X381.67282 Y505.10339
 X382.52462 Y507.69352
 X385.73834 Y521.48849
 X386.26918 Y536.51433
 X384.14042 Y551.63282
 X379.45172 Y565.70508
 X378.51208 Y567.85695
 X377.72019 Y569.73070
 X377.05351 Y571.35183
 X377.00000 Y571.62443
 X377.45002 Y572.02708
 X379.02645 Y571.70322
 X381.61054 Y570.77042
G0 Z25.00000
 X377.04283 Y566.25000
G1 Z0.00000
 X381.94140 Y551.21798
 X383.93118 Y534.48229
 X382.91972 Y518.04453
 X378.86928 Y503.91777
 X378.02371 Y502.03276
 X377.23418 Y500.44460
 X376.53057 Y499.15052
 X376.27378 Y499.00000
 X375.95611 Y499.11188
 X374.43573 Y500.34783
 X372.68117 Y501.82977
 X370.69052 Y503.58834
 X368.35949 Y505.53955
 X365.56527 Y507.61072
 X362.75882 Y509.49109
 X360.40926 Y510.83834
 X355.23134 Y513.50000
 X364.05040 Y540.50000
 X367.46436 Y550.97415
 X370.41741 Y560.08281
 X372.95456 Y567.94307
 X373.34111 Y569.25000
 X373.92840 Y570.58161
 X374.59455 Y570.68988
 X375.46615 Y569.59795
G0 Z25.00000
 X292.50000 Y532.02849
G1 Z0.00000
 X299.76635 Y529.30242
 X307.30003 Y525.66144
 X314.19453 Y521.60114
 X319.47251 Y517.61661
 X324.44503 Y513.25921
 X319.36202 Y510.68345
 X317.01945 Y509.33752
 X314.14016 Y507.37278
 X311.22176 Y505.16273
 X308.72332 Y503.03011
 X303.16763 Y497.95252
 X278.70957 Y515.72626
 X268.44246 Y523.28762
 X261.01918 Y529.01030
 X255.35216 Y533.58214
 X255.37575 Y534.30233
 X256.27405 Y534.61014
 X260.42913 Y534.74443
 X265.36215 Y534.78498
 X271.00000 Y534.68065
 X278.58424 Y534.36279
 X283.95653 Y533.88535
 X288.30455 Y533.14786
G0 Z25.00000
 X193.40766 Y569.25000
G1 Z0.00000
 X182.21757 Y549.87714
 X173.56025 Y529.39095
 X167.41224 Y507.66586
 X163.71807 Y484.59171
 X162.48424 Y472.68342
 X155.99212 Y478.02169
 X145.74811 Y487.19065
 X135.42831 Y497.92311
 X125.72052 Y509.44684
 X117.31424 Y521.00000
 X112.45784 Y528.59014
 X107.19280 Y537.50427
 X102.04036 Y546.58109
 X102.16608 Y547.49942
 X102.53014 Y547.76041
 X104.80597 Y548.87644
 X107.46979 Y550.15158
 X110.54832 Y551.58254
 X130.51584 Y559.69011
 X150.64394 Y565.74987
 X171.05401 Y569.78421
 X191.86501 Y571.83190
 X195.23002 Y572.00000
G0 Z25.00000
 X197.94585 Y534.00000
G1 Z0.00000
 X201.67870 Y518.16996
 X207.04325 Y503.23233
 X213.91966 Y489.49450
 X222.17081 Y477.25000
 X227.03374 Y471.00000
 X164.79184
 X165.44434 Y479.25000
 X168.28755 Y501.45859
 X173.15007 Y521.65229
 X180.26118 Y540.58276
 X189.83958 Y559.00000
 X195.50000 Y568.50000
 X196.14146 Y554.50000
 X196.47241 Y548.66330
 X196.93610 Y542.70312
 X197.45501 Y537.42033
G0 Z25.00000
 X169.11850 Y460.25000
G1 Z0.00000
 X183.62850 Y442.27112
 X201.10632 Y426.73752
 X220.43030 Y414.55509
 X240.43065 Y406.54814
 X243.85331 Y405.53070
 X246.91172 Y404.56676
 X249.46430 Y403.71822
 X250.23274 Y403.35616
 X250.72515 Y403.21763
 X251.31152 Y403.32791
 X251.90180 Y403.66727
 X252.40170 Y404.18921
 X253.99206 Y405.78815
 X272.67500 Y419.65049
 X289.76360 Y432.23532
 X297.38834 Y437.51880
 X299.84404 Y439.12783
 X297.47797 Y432.31392
 X294.20707 Y418.29883
 X293.72703 Y403.28400
 X296.04605 Y387.86341
 X301.08784 Y372.64529
 X302.20416 Y369.99754
 X303.14455 Y367.72215
 X303.95897 Y365.72156
 X304.00000 Y365.51143
 X303.54163 Y364.85546
 X297.47902 Y362.67303
 X291.26225 Y360.60485
 X285.66613 Y359.02448
 X266.83085 Y355.90056
 X246.82036 Y355.74904
 X226.54150 Y358.53781
 X206.90521 Y364.17830
 X198.31042 Y367.32977
 X193.06902 Y375.41488
 X183.44356 Y392.55733
 X175.40634 Y411.83291
 X169.55939 Y431.54823
 X166.51792 Y450.00000
 X166.24998 Y452.79979
 X165.94111 Y455.83906
 X165.63882 Y458.66798
 X165.39747 Y460.75000
 X165.23495 Y462.37968
 X165.18097 Y463.75156
 X165.20855 Y464.82725
 X165.39069 Y465.00000
 X165.69297 Y464.85693
 X166.69744 Y463.60469
 X167.84935 Y462.07050
G0 Z25.00000
 X157.47784 Y465.84194
G1 Z0.00000
 X150.09231 Y459.29968
 X138.65648 Y447.71250
 X127.51164 Y435.80701
 X121.09906 Y428.00000
 X118.29216 Y424.05992
 X115.02784 Y419.20625
 X111.83583 Y414.25396
 X109.24699 Y410.00000
 X107.00298 Y406.18222
 X104.87004 Y402.56725
 X103.06239 Y399.51543
 X102.17414 Y398.03744
 X100.67534 Y395.57487
 X99.38384 Y399.30526
 X96.36351 Y410.15778
 X93.43331 Y425.69288
 X91.00583 Y442.85843
 X89.50872 Y459.25000
 X88.87933 Y469.00000
 X161.45569
G0 Z25.00000
 X105.91263 Y535.25000
G1 Z0.00000
 X115.73758 Y519.56662
 X126.60133 Y504.96679
 X138.33526 Y491.66492
 X150.76636 Y479.86916
 X161.03272 Y471.00000
 X13.82987
 X17.98882 Y476.25000
 X31.07772 Y491.63134
 X45.28113 Y506.14248
 X60.24785 Y519.44464
 X75.62360 Y531.20262
 X80.30952 Y534.33333
 X89.01287 Y539.77924
 X98.70077 Y545.76633
 X99.52464 Y546.00000
 X99.66081 Y545.92262
 X101.49356 Y542.84219
 X103.53317 Y539.37173
G0 Z25.00000
 X84.12781 Y467.23881
G1 Z0.00000
 X83.61270 Y466.42371
 X82.81559 Y465.41076
 X81.89605 Y464.37923
 X80.98429 Y463.48881
 X78.00300 Y460.35969
 X71.97231 Y452.86546
 X65.74433 Y444.79492
 X60.84119 Y438.00000
 X52.72974 Y425.31285
 X44.53766 Y410.59146
 X37.15761 Y395.57470
 X31.52000 Y382.00000
 X30.39954 Y379.06872
 X29.34022 Y376.46828
 X28.40771 Y374.30815
 X28.01601 Y373.70054
 X27.13824 Y373.89631
 X24.65589 Y382.47875
 X22.04590 Y392.63048
 X19.55354 Y404.00000
 X17.23338 Y416.65492
 X15.42468 Y429.28925
 X14.11999 Y441.96647
 X13.31114 Y454.75000
 X12.68866 Y469.00000
 X48.87951
 X71.50985 Y468.96204
 X79.68006 Y468.74435
 X83.62260 Y468.28692
G0 Z25.00000
 X90.98512 Y426.50000
G1 Z0.00000
 X91.99713 Y421.08725
 X93.34945 Y414.71020
 X94.80760 Y408.40260
 X96.14471 Y403.21556
 X99.24684 Y391.93112
 X95.72252 Y384.21556
 X90.70844 Y371.96037
 X85.74615 Y357.16554
 X81.36072 Y341.61329
 X78.08700 Y327.00000
 X76.75326 Y319.00695
 X75.38455 Y308.48741
 X74.28303 Y298.33993
 X74.00000 Y292.57378
 X73.95265 Y290.29850
 X73.80997 Y287.86373
 X73.60207 Y285.62425
 X73.35310 Y284.01552
 X72.71232 Y282.65630
 X71.86934 Y282.61253
 X70.35468 Y284.46299
 X65.55418 Y291.78305
 X55.79955 Y307.89935
 X46.37928 Y325.73437
 X38.03382 Y343.77515
 X31.53017 Y360.50000
 X28.74578 Y368.50000
 X32.48305 Y378.50000
 X41.67341 Y400.07164
 X52.92602 Y421.14254
 X65.96443 Y441.23070
 X80.50000 Y459.86094
 X86.50000 Y466.88611
 X87.71382 Y452.69306
 X88.32794 Y446.38509
 X89.17547 Y439.14421
 X90.10933 Y432.11207
G0 Z25.00000
 X110.11015 Y386.12984
G1 Z0.00000
 X129.45303 Y378.27365
 X149.67613 Y372.13602
 X170.07516 Y367.90351
 X189.94348 Y365.75151
 X194.38697 Y365.50000
 X167.44348 Y345.89242
 X156.93936 Y338.27817
 X147.68614 Y331.63555
 X139.77033 Y326.00078
 X138.01997 Y324.89242
 X136.99568 Y324.27165
 X135.96884 Y323.55799
 X135.08009 Y322.85922
 X134.51997 Y322.30498
 X132.65668 Y320.57859
 X105.31668 Y300.64635
 X77.38773 Y280.30460
 X76.45192 Y280.00000
 X75.81419 Y280.65388
 X76.07511 Y289.01821
 X76.59035 Y298.02429
 X77.46152 Y307.00613
 X79.10967 Y319.17425
 X81.12878 Y330.65886
 X83.54537 Y341.60022
 X86.38717 Y352.13642
 X90.12367 Y363.72756
 X94.85622 Y376.54838
 X99.80093 Y389.08725
 X101.11015 Y389.98983
 X101.54937 Y389.90480
 X104.00559 Y388.86015
 X106.85059 Y387.61235
G0 Z25.00000
 X134.56639 Y316.75000
G1 Z0.00000
 X134.27982 Y315.16038
 X133.92401 Y309.57969
 X133.58808 Y302.94248
 X133.31605 Y295.50000
 X133.30880 Y275.89901
 X134.54927 Y257.89684
 X137.18692 Y240.00517
 X141.39464 Y220.73595
 X142.56490 Y215.85890
 X143.42891 Y211.79891
 X144.06597 Y208.42755
 X143.84075 Y208.23595
 X143.32892 Y208.51100
 X140.73103 Y210.47557
 X137.72434 Y212.79172
 X134.29860 Y215.48939
 X120.51292 Y227.42028
 X104.50959 Y243.19436
 X89.55407 Y259.33351
 X79.27133 Y272.24673
 X76.04266 Y276.76755
 X104.77133 Y297.79603
 X115.84761 Y305.86414
 X125.31553 Y312.67317
 X133.73891 Y318.67615
 X134.36663 Y318.91226
 X134.64340 Y318.76711
 X134.78279 Y318.31329
 X134.76004 Y317.60665
G0 Z25.00000
 X193.89656 Y356.07095
G1 Z0.00000
 X190.04003 Y336.70847
 X188.00272 Y315.95148
 X187.83685 Y294.75075
 X189.58700 Y274.05573
 X190.30729 Y268.62588
 X183.91985 Y273.56294
 X171.11979 Y284.70679
 X154.85704 Y301.38041
 X138.63727 Y319.07425
 X138.71511 Y322.11511
 X140.38225 Y323.54168
 X167.51054 Y343.32223
 X195.35352 Y363.61563
 X195.64686 Y363.61227
 X195.68886 Y363.49581
 X195.19330 Y361.35070
 X194.61340 Y358.92743
G0 Z25.00000
 X145.75342 Y308.23867
G1 Z0.00000
 X153.51133 Y299.41309
 X162.82130 Y289.86053
 X172.52936 Y280.69899
 X181.50000 Y273.06311
 X184.61579 Y270.56812
 X187.35409 Y268.37148
 X189.68607 Y266.49788
 X190.19478 Y266.08084
 X190.53630 Y265.55604
 X191.31369 Y262.76737
 X192.15829 Y259.44611
 X193.02817 Y255.61658
 X198.98729 Y233.66546
 X207.56441 Y210.82505
 X218.15874 Y188.50114
 X230.17523 Y168.09450
 X232.00964 Y165.23125
 X233.50065 Y162.76652
 X234.72725 Y160.63833
 X234.68922 Y160.35588
 X234.38464 Y160.28423
 X230.95008 Y161.44386
 X227.02515 Y162.82435
 X222.42805 Y164.52741
 X204.86001 Y171.97183
 X184.92843 Y181.98354
 X166.10354 Y192.64945
 X152.18690 Y202.03411
 X149.33153 Y204.45154
 X147.76326 Y206.51349
 X146.57029 Y209.44805
 X144.74364 Y216.03411
 X140.08411 Y236.57803
 X136.95818 Y256.99116
 X135.38130 Y277.16697
 X135.36227 Y297.00000
 X135.79918 Y306.43693
 X136.29149 Y312.84362
 X136.82172 Y317.43950
 X137.46036 Y318.00000
 X137.61082 Y317.93048
 X139.99012 Y315.13261
 X142.64452 Y311.98125
G0 Z25.00000
 X75.00000 Y97.62244
G1 Z0.00000
 X74.92561 Y97.00198
 X74.70625 Y96.47659
 X74.38142 Y96.12474
 X74.00000 Y96.00000
 X73.48736 Y95.87449
 X72.70625 Y95.41250
 X71.83907 Y94.76559
 X71.00000 Y94.00000
 X70.27216 Y93.23193
 X69.75536 Y92.58750
 X69.48669 Y92.13534
 X69.57143 Y92.00000
 X69.66500 Y91.87608
 X69.51339 Y91.53839
 X69.13517 Y91.03231
 X68.57143 Y90.42857
 X67.96182 Y89.72193
 X67.42897 Y88.89911
 X67.04201 Y88.08771
 X66.88889 Y87.42857
 X66.70120 Y84.50741
 X66.74770 Y82.99130
 X67.00929 Y82.15564
 X67.52778 Y81.75000
 X67.92155 Y81.84273
 X68.30151 Y82.30781
 X68.61217 Y83.06049
 X68.79651 Y84.00000
 X69.36953 Y86.90191
 X70.37310 Y89.62110
 X71.63250 Y91.79859
 X72.97548 Y92.98688
 X74.62033 Y93.45362
 X76.70089 Y93.32908
 X78.44617 Y92.76259
 X79.00000 Y91.88337
 X79.07879 Y91.54641
 X79.30129 Y91.25949
 X79.63400 Y91.06691
 X80.02568 Y91.00000
 X80.47081 Y91.60686
 X79.58667 Y93.79740
 X78.13581 Y96.23971
 X76.56594 Y97.94528
 X75.69781 Y98.61538
 X75.29104 Y98.70181
 X75.05744 Y98.45248
G0 Z25.00000
 X78.00000 Y95.00000
G1 Z0.00000
 X77.92838 Y94.61827
 X77.72359 Y94.29375
 X77.41805 Y94.07656
 X77.05902 Y94.00000
 X76.65344 Y94.07330
 X76.21290 Y94.29375
 X75.80620 Y94.61749
 X75.50000 Y95.00000
 X75.39206 Y95.37965
 X75.52147 Y95.70625
 X75.88935 Y95.92673
 X76.44098 Y96.00000
 X77.03710 Y95.92545
 X77.54204 Y95.70625
 X77.87998 Y95.38138
G0 Z25.00000
 X68.86126 Y80.25000
G1 Z0.00000
 X68.77367 Y76.52057
 X69.19005 Y73.57854
 X70.12351 Y71.27957
 X71.59436 Y69.50343
 X72.91805 Y68.22705
 X73.47066 Y67.25574
 X73.51068 Y66.18963
 X73.04386 Y64.61537
 X72.64729 Y63.40433
 X72.31953 Y62.03450
 X72.10043 Y60.71710
 X72.04389 Y59.68490
 X72.17682 Y59.01706
 X72.45131 Y58.96773
 X72.91252 Y59.68797
 X73.66355 Y61.50000
 X74.26131 Y63.22953
 X74.75423 Y65.11863
 X75.08420 Y66.88688
 X75.16370 Y68.20171
 X75.64700 Y69.98887
 X76.76312 Y70.21732
 X78.52180 Y68.30162
 X80.46053 Y64.49333
 X81.43377 Y62.43453
 X82.44287 Y60.58032
 X83.37073 Y59.09390
 X83.95643 Y58.52693
 X84.19208 Y58.66818
 X84.03523 Y59.50068
 X83.47376 Y60.96762
 X82.56807 Y62.86567
 X80.44311 Y67.24112
 X80.20674 Y68.80807
 X80.98023 Y69.49395
 X83.44888 Y69.31458
 X85.09342 Y69.15404
 X86.44059 Y69.26340
 X87.54282 Y69.64642
 X88.44888 Y70.30602
 X89.79945 Y71.78569
 X89.75189 Y72.36903
 X88.97353 Y72.61769
 X86.15408 Y72.29384
 X83.75819 Y72.13679
 X82.40358 Y72.54392
 X81.21721 Y73.71274
 X79.16332 Y76.88900
 X77.25473 Y79.80345
 X75.95873 Y81.16185
 X74.56036 Y81.79681
 X72.50924 Y82.00000
 X70.80288 Y81.91400
 X69.74065 Y81.61545
 X69.13249 Y81.07151
G0 Z25.00000
 X61.02889 Y79.75000
G1 Z0.00000
 X61.43154 Y77.86801
 X62.05901 Y75.72031
 X62.79652 Y73.64642
 X63.53613 Y72.00000
 X66.07785 Y67.53626
 X68.23926 Y65.04116
 X69.17903 Y65.29675
 X69.25250 Y67.14244
 X68.94597 Y68.13055
 X68.64451 Y68.46519
 X68.29497 Y68.40696
 X67.82001 Y67.83454
 X67.52959 Y67.77104
 X67.32928 Y68.09577
 X67.33694 Y69.25012
 X67.55456 Y71.13177
 X67.77512 Y73.28496
 X67.73973 Y74.83958
 X67.46756 Y75.91225
 X66.94130 Y76.53628
 X66.41525 Y76.82980
 X66.19649 Y76.81293
 X66.14805 Y76.62910
 X66.40451 Y76.15451
 X66.60450 Y75.71238
 X66.61401 Y75.33914
 X66.43788 Y75.09422
 X66.11572 Y75.00000
 X64.88122 Y75.54354
 X63.47572 Y77.41041
 X62.36464 Y79.69511
 X62.00000 Y81.72251
 X61.93861 Y82.59481
 X61.75282 Y83.33099
 X61.48121 Y83.83641
 X61.15854 Y84.00000
 X60.87163 Y83.75678
 X60.77335 Y82.75156
 X60.81645 Y81.37960
G0 Z25.00000
 X61.07895 Y86.41667
G1 Z0.00000
 X61.13799 Y85.67034
 X61.27931 Y85.37858
 X61.46156 Y85.39582
 X61.68311 Y85.81250
 X61.83915 Y86.35937
 X61.87658 Y86.91693
 X61.79741 Y87.40223
 X61.60417 Y87.72917
 X61.38531 Y87.77538
 X61.20067 Y87.59284
 X61.08995 Y87.11285
G0 Z25.00000
 X91.58333 Y76.25000
G1 Z0.00000
 X91.24721 Y75.95658
 X90.85781 Y75.69494
 X90.47525 Y75.49924
 X90.16667 Y75.41363
 X89.81379 Y75.34132
 X89.25521 Y75.17210
 X88.62318 Y74.95428
 X88.00000 Y74.71267
 X87.25125 Y74.44492
 X86.20625 Y74.14473
 X85.06705 Y73.86181
 X84.00000 Y73.64233
 X83.58200 Y73.49707
 X83.60380 Y73.38247
 X84.49268 Y73.34194
 X86.16187 Y73.39771
 X88.04473 Y73.55653
 X89.84740 Y73.85857
 X91.35246 Y74.24597
 X92.16187 Y74.67014
 X92.78312 Y75.11706
 X93.54755 Y75.58282
 X94.32883 Y75.99777
 X95.00000 Y76.28678
 X95.61190 Y76.55114
 X95.64473 Y76.72840
 X95.36777 Y76.86382
 X94.41667 Y76.92105
 X93.56409 Y76.89593
 X92.72500 Y76.75650
 X92.01465 Y76.53320
G0 Z25.00000
 X270.82968 Y213.66663
G1 Z0.00000
 X282.14407 Y197.40183
 X296.07341 Y180.56186
 X311.41285 Y164.48170
 X326.98608 Y150.49511
 X336.47215 Y142.67022
 X322.98608 Y143.29432
 X304.70963 Y144.70638
 X285.77485 Y147.28248
 X267.35942 Y150.82668
 X250.65461 Y155.15052
 X246.74203 Y156.32683
 X243.40166 Y157.36218
 X240.47724 Y158.28907
 X240.22338 Y158.44351
 X240.15839 Y158.70592
 X242.40405 Y165.95016
 X244.95389 Y174.04660
 X248.03538 Y183.60995
 X258.61302 Y216.11034
 X261.05013 Y223.15662
 X262.35554 Y225.64663
 X263.40720 Y225.60461
 X264.12671 Y224.41726
 X266.03833 Y221.33715
 X268.32574 Y217.66707
G0 Z25.00000
 X275.17784 Y225.48839
G1 Z0.00000
 X288.89320 Y222.34871
 X305.52650 Y219.58572
 X321.84876 Y217.61675
 X334.41382 Y217.00084
 X337.43941 Y216.79020
 X339.58046 Y216.11794
 X341.87146 Y214.61888
 X345.91382 Y211.16459
 X365.71558 Y195.25561
 X386.89027 Y181.38598
 X409.97395 Y169.24970
 X435.50000 Y158.53340
 X436.38328 Y158.07391
 X436.43123 Y157.66039
 X435.75072 Y157.19006
 X433.50000 Y156.33686
 X417.06626 Y151.64137
 X393.47839 Y147.26630
 X369.09038 Y144.04542
 X349.61428 Y143.01071
 X339.72856 Y143.00000
 X330.11428 Y150.70078
 X320.38268 Y159.07801
 X308.84436 Y170.14801
 X297.79521 Y181.56402
 X289.63859 Y191.00000
 X281.90775 Y201.27644
 X273.22170 Y214.04414
 X264.84436 Y226.98063
 X265.40216 Y228.00000
 X265.74628 Y227.95684
 X268.46084 Y227.26221
 X271.57193 Y226.45108
G0 Z25.00000
 X272.75044 Y266.25000
G1 Z0.00000
 X268.48856 Y253.27483
 X264.79861 Y242.26719
 X261.47873 Y232.50244
 X261.12574 Y232.00000
 X260.87322 Y231.67684
 X260.63480 Y231.05937
 X260.44308 Y230.30229
 X260.33317 Y229.50000
 X259.56873 Y225.69427
 X249.34391 Y194.21202
 X238.67412 Y161.47115
 X238.02491 Y161.00000
 X237.03307 Y161.54096
 X231.40069 Y170.34859
 X225.80123 Y179.43685
 X220.88077 Y188.00000
 X213.00164 Y203.73513
 X205.63118 Y221.50314
 X199.45325 Y239.46164
 X195.19126 Y255.75666
 X193.20491 Y265.01333
 X195.35245 Y265.45454
 X196.70767 Y265.73234
 X199.95353 Y266.39603
 X203.82208 Y267.18665
 X208.00000 Y268.04005
 X225.21761 Y272.43931
 X243.14657 Y278.75501
 X260.38014 Y286.42162
 X275.50000 Y294.88415
 X278.57619 Y296.81803
 X281.18663 Y298.45286
 X283.52938 Y299.91628
 X283.62470 Y299.96035
 X283.65939 Y299.92552
 X280.48183 Y290.07429
 X276.95913 Y279.18889
G0 Z25.00000
 X289.35374 Y290.38751
G1 Z0.00000
 X296.62171 Y274.36145
 X306.60268 Y257.33876
 X318.48933 Y240.53810
 X331.50814 Y225.15998
 X337.38211 Y218.81996
 X327.94106 Y219.47423
 X312.46435 Y220.93551
 X296.77220 Y223.18873
 X282.21577 Y225.99907
 X270.26208 Y229.14620
 X267.86163 Y229.93884
 X265.83880 Y230.72071
 X264.22250 Y231.43848
 X263.99766 Y231.79018
 X264.45895 Y234.68597
 X274.83588 Y266.01068
 X285.50368 Y298.11747
 X286.05095 Y298.21837
 X286.38338 Y297.67421
 X287.26357 Y295.62173
 X288.27085 Y293.16457
G0 Z25.00000
 X317.74156 Y294.48928
G1 Z0.00000
 X333.91097 Y293.18612
 X350.70311 Y293.42981
 X367.30780 Y295.17571
 X382.91462 Y298.37284
 X392.05439 Y300.74674
 X391.41277 Y298.62337
 X387.95119 Y289.14427
 X382.71208 Y277.95749
 X376.27107 Y266.12759
 X369.11048 Y254.62780
 X363.43200 Y246.68646
 X355.22254 Y236.32628
 X347.00410 Y226.51247
 X342.13465 Y221.57513
 X340.69496 Y220.47613
 X339.78168 Y220.32660
 X338.76420 Y220.87444
 X336.39818 Y223.07513
 X327.77334 Y232.37372
 X317.72032 Y245.21615
 X308.06015 Y259.03186
 X300.55997 Y271.50000
 X297.17525 Y278.17569
 X292.79950 Y287.78313
 X288.44904 Y297.74757
 X288.00000 Y299.92250
 X288.24989 Y300.13652
 X290.69966 Y299.72917
 X293.66584 Y299.13456
 X297.19034 Y298.29550
 X301.52171 Y297.30070
 X307.01827 Y296.22169
 X312.72182 Y295.22796
G0 Z25.00000
 X430.00000 Y223.71245
G1 Z0.00000
 X442.55544 Y218.81832
 X458.70620 Y213.88109
 X475.82339 Y209.58060
 X491.50000 Y206.61143
 X499.24436 Y205.58545
 X511.22372 Y204.33675
 X523.12477 Y203.23090
 X528.38632 Y203.00000
 X528.55371 Y202.45904
 X521.18956 Y197.49082
 X512.65628 Y191.99678
 X503.62428 Y186.53310
 X492.99764 Y180.67341
 X480.36455 Y174.41810
 X467.28780 Y168.49266
 X455.28304 Y163.62575
 X450.56666 Y161.85254
 X446.51965 Y160.35881
 X442.95589 Y159.06157
 X442.60594 Y159.00000
 X442.19276 Y159.29854
 X431.14432 Y192.71302
 X420.29253 Y225.56629
 X420.00000 Y227.38592
 X420.34998 Y227.65371
 X422.03418 Y227.11738
 X424.83726 Y225.99324
G0 Z25.00000
 X467.66667 Y77.33333
G1 Z0.00000
 X467.41349 Y76.85320
 X467.23584 Y75.66302
 X467.13274 Y74.19580
 X467.13618 Y72.58333
 X467.21418 Y71.12522
 X467.35730 Y70.34236
 X467.52601 Y70.31055
 X467.69768 Y70.68852
 X467.98602 Y71.55858
 X468.49405 Y72.36502
 X469.13398 Y72.99048
 X469.81149 Y73.32252
 X470.88006 Y73.61087
 X470.95100 Y73.71539
 X470.85922 Y73.80430
 X469.75000 Y73.88400
 X469.08147 Y74.03589
 X468.51406 Y74.38501
 X468.13384 Y74.87341
 X468.00000 Y75.42668
 X468.13148 Y76.00621
 X468.51406 Y76.56860
 X469.08113 Y77.02898
 X469.75000 Y77.31067
 X470.70412 Y77.57013
 X470.83485 Y77.69989
 X470.76111 Y77.80944
 X469.91667 Y77.88400
 X469.26158 Y77.87914
 X468.60260 Y77.77009
 X468.03411 Y77.58121
G0 Z25.00000
 X473.80300 Y74.32005
G1 Z0.00000
 X474.33506 Y74.00190
 X474.45655 Y73.64145
 X474.19371 Y73.19437
 X473.40023 Y72.55070
 X472.80109 Y71.98791
 X472.40461 Y71.33149
 X472.26445 Y70.68631
 X472.40624 Y70.15170
 X473.06098 Y69.37124
 X473.76035 Y69.07394
 X474.62894 Y69.22742
 X475.85701 Y69.89047
 X476.66338 Y71.10253
 X476.52694 Y72.87982
 X475.56752 Y74.40025
 X474.18261 Y74.92105
 X473.45824 Y74.86415
 X473.24589 Y74.73140
 X473.29054 Y74.56051
G0 Z25.00000
 X478.14983 Y71.81955
G1 Z0.00000
 X478.25158 Y69.66473
 X478.34187 Y69.46032
 X478.44368 Y69.49322
 X478.71625 Y71.25000
 X479.35990 Y73.19454
 X480.48601 Y73.92268
 X481.61943 Y73.32947
 X482.30539 Y71.48763
 X482.59768 Y69.82320
 X482.65595 Y69.80103
 X482.70121 Y69.89975
 X482.62181 Y71.73763
 X482.44488 Y73.07425
 X482.03021 Y73.96075
 X481.32210 Y74.51475
 X480.25000 Y74.81955
 X479.02914 Y74.86296
 X478.41232 Y74.51386
 X478.13732 Y73.68746
G0 Z25.00000
 X485.17897 Y72.85292
G1 Z0.00000
 X485.48320 Y70.87163
 X486.01717 Y69.98567
 X487.02177 Y69.56054
 X489.30054 Y69.41465
 X491.57327 Y69.43164
 X492.47217 Y69.73754
 X492.84819 Y70.42253
 X492.80054 Y71.90610
 X492.54392 Y73.04169
 X492.07104 Y73.89561
 X491.38426 Y74.45641
 X490.50000 Y74.73296
 X488.50000 Y74.98302
 X490.50000 Y74.06180
 X491.68984 Y73.49831
 X491.85790 Y73.28507
 X491.74458 Y73.13182
 X490.71861 Y73.07028
 X489.99458 Y72.93149
 X489.29143 Y72.58002
 X488.71437 Y72.07883
 X488.36163 Y71.50000
 X487.59857 Y70.23434
 X486.75281 Y70.06255
 X486.17641 Y70.88790
 X486.24931 Y72.52387
 X486.36493 Y73.53245
 X486.31484 Y74.47644
 X486.12152 Y75.22888
 X485.79486 Y75.62679
 X485.45986 Y75.57169
 X485.21862 Y75.07843
 X485.11616 Y74.13298
G0 Z25.00000
 X494.57003 Y74.11331
G1 Z0.00000
 X494.47457 Y73.67945
 X494.63429 Y73.11254
 X495.01110 Y72.50500
 X495.55834 Y71.95158
 X496.29852 Y71.25846
 X496.52740 Y70.76704
 X496.37957 Y70.32964
 X495.79733 Y69.85358
 X495.22676 Y69.46017
 X495.08763 Y69.22136
 X495.20224 Y69.06399
 X495.69098 Y69.01531
 X496.81851 Y69.31927
 X497.52793 Y70.15556
 X497.61149 Y71.30688
 X497.04435 Y72.44656
 X496.55692 Y73.13390
 X496.44417 Y73.62218
 X496.65067 Y74.00268
 X497.20826 Y74.32381
 X497.69919 Y74.55828
 X497.74054 Y74.73024
 X497.52113 Y74.86398
 X496.80902 Y74.92105
 X496.12154 Y74.88550
 X495.45378 Y74.71634
 X494.90199 Y74.44754
G0 Z25.00000
 X506.00000 Y73.50000
G1 Z0.00000
 X505.91809 Y72.12286
 X505.66667 Y71.00000
 X505.29276 Y70.24344
 X504.83333 Y70.00000
 X504.43017 Y69.95497
 X504.19811 Y69.81127
 X504.15914 Y69.60159
 X504.30917 Y69.35750
 X504.66726 Y69.20469
 X505.21066 Y69.27531
 X505.84518 Y69.54308
 X506.47583 Y69.97994
 X507.48861 Y71.49805
 X507.96366 Y74.01487
 X507.84987 Y76.28693
 X507.00000 Y77.00000
 X506.61431 Y76.76790
 X506.29375 Y75.97187
 X506.07254 Y74.84111
G0 Z25.00000
 X515.36163 Y73.50000
G1 Z0.00000
 X515.07960 Y71.89235
 X515.46070 Y70.41335
 X516.41197 Y69.39170
 X517.71861 Y69.03041
 X518.85318 Y69.06560
 X518.98933 Y69.20382
 X518.87810 Y69.40872
 X517.75000 Y70.08010
 X517.08062 Y70.57215
 X516.51406 Y71.20446
 X516.12708 Y71.87476
 X516.00000 Y72.47637
 X516.13135 Y73.03692
 X516.51406 Y73.58320
 X517.08109 Y74.03279
 X517.75000 Y74.31067
 X518.90321 Y74.61742
 X518.97541 Y74.71729
 X518.89210 Y74.80223
 X517.71861 Y74.88400
 X516.99463 Y74.81586
 X516.29143 Y74.52530
 X515.71524 Y74.06456
G0 Z25.00000
 X520.66667 Y74.33333
G1 Z0.00000
 X520.05602 Y73.18718
 X520.07371 Y71.70851
 X520.68227 Y70.35309
 X521.72362 Y69.55256
 X523.19244 Y69.54065
 X524.58636 Y70.48774
 X525.41041 Y72.02443
 X525.32433 Y73.59720
 X524.57916 Y74.47046
 X523.22774 Y74.94937
 X521.75500 Y74.91757
G0 Z25.00000
 X541.97789 Y73.43300
G1 Z0.00000
 X541.57067 Y72.02300
 X541.32263 Y70.73765
 X541.23128 Y69.69707
 X541.40034 Y69.26633
 X541.62551 Y69.19373
 X541.82385 Y69.33240
 X541.95878 Y69.73337
 X542.00000 Y70.33333
 X542.43306 Y71.48671
 X543.47645 Y71.94741
 X544.84015 Y71.48899
 X545.99806 Y70.25000
 X546.66071 Y69.21393
 X546.80971 Y69.19485
 X546.87024 Y69.38833
 X546.54775 Y70.75000
 X545.23715 Y75.66509
 X544.24448 Y76.94112
 X543.23919 Y76.62662
G0 Z25.00000
 X557.66667 Y77.33333
G1 Z0.00000
 X557.41151 Y76.85337
 X557.22511 Y75.66302
 X557.11023 Y74.19580
 X557.09968 Y72.58333
 X557.17152 Y70.31132
 X557.31465 Y69.75960
 X557.51608 Y69.77309
 X557.90159 Y71.00000
 X558.36555 Y72.54564
 X558.65789 Y72.84526
 X558.99198 Y72.73048
 X559.66831 Y71.61304
 X560.30033 Y70.60854
 X560.63387 Y70.56499
 X560.89472 Y71.01865
 X561.19967 Y72.90707
 X561.31746 Y74.16281
 X561.28462 Y75.30492
 X561.12647 Y76.20375
 X560.83327 Y76.60304
 X560.51784 Y76.66704
 X560.24477 Y76.50880
 X560.05998 Y76.11968
 X560.00000 Y75.55902
 X559.91627 Y74.96318
 X559.67199 Y74.45796
 X559.30918 Y74.12018
 X558.88337 Y74.00000
 X558.49604 Y74.15878
 X558.24279 Y74.58068
 X558.16773 Y75.22544
 X558.28975 Y76.00000
 X558.63381 Y77.41690
 X558.58514 Y77.86476
 X558.33258 Y77.92477
G0 Z25.00000
 X565.71987 Y73.03677
G1 Z0.00000
 X565.73047 Y71.48047
 X566.51264 Y70.06003
 X567.73359 Y69.30269
 X568.95619 Y69.47293
 X569.35558 Y69.64662
 X569.69338 Y69.63788
 X569.91635 Y69.45297
 X570.00000 Y69.12857
 X569.85393 Y68.71660
 X569.40800 Y68.29681
 X568.75585 Y67.93274
 X567.98468 Y67.68650
 X566.79998 Y67.41651
 X566.77436 Y67.34403
 X566.89065 Y67.29120
 X568.23468 Y67.36695
 X569.40506 Y67.61590
 X570.12659 Y68.19085
 X570.55514 Y69.26548
 X570.81037 Y71.25000
 X570.92133 Y73.44552
 X570.67869 Y74.39812
 X570.03691 Y74.86317
 X568.67700 Y75.00000
 X567.59530 Y74.87322
 X566.72819 Y74.49663
 X566.10115 Y73.87630
G0 Z25.00000
 X573.26583 Y73.50000
G1 Z0.00000
 X573.30296 Y71.71188
 X573.41210 Y70.77656
 X573.55853 Y70.75661
 X573.71625 Y71.25000
 X574.21366 Y73.14682
 X575.03750 Y73.93420
 X575.74707 Y73.57590
 X576.00000 Y72.00000
 X576.07369 Y71.23458
 X576.29375 Y70.58750
 X576.61812 Y70.15148
 X577.00000 Y70.00000
 X577.63881 Y70.24367
 X577.95367 Y70.85108
 X577.88048 Y71.89777
 X577.39301 Y73.41821
 X577.06244 Y74.02297
 X576.57667 Y74.53535
 X576.01617 Y74.88240
 X575.46633 Y75.00000
 X574.92767 Y75.13116
 X574.39997 Y75.51406
 X573.96283 Y76.08102
 X573.68933 Y76.75000
 X573.52644 Y76.79967
 X573.37628 Y76.51719
 X573.28284 Y75.31459
G0 Z25.00000
 X579.00000 Y74.16512
G1 Z0.00000
 X579.15109 Y72.37755
 X579.59996 Y70.66878
 X580.21249 Y69.36734
 X580.85699 Y68.99993
 X581.10217 Y69.18088
 X581.28335 Y69.93936
 X581.39532 Y70.97212
 X581.40548 Y72.19810
 X581.06080 Y74.37094
 X580.16473 Y75.72319
 X579.37049 Y75.57411
G0 Z25.00000
 X590.66667 Y77.33333
G1 Z0.00000
 X590.08039 Y76.06249
 X590.01980 Y73.28500
 X590.25597 Y70.58344
 X590.92668 Y70.00000
 X591.31232 Y70.12783
 X591.70481 Y70.51406
 X592.04471 Y71.08047
 X592.27436 Y71.75000
 X592.53975 Y72.58037
 X592.82099 Y72.68691
 X593.16287 Y72.33948
 X593.77305 Y71.00000
 X594.44901 Y69.50383
 X594.67483 Y69.48741
 X594.80834 Y69.93707
 X594.77041 Y72.50000
 X594.41090 Y75.39280
 X593.43415 Y77.33693
 X592.09682 Y77.94107
G0 Z25.00000
 X603.00000 Y73.58333
G1 Z0.00000
 X603.09336 Y73.00385
 X603.36719 Y72.43382
 X603.77209 Y71.95911
 X604.25000 Y71.65946
 X604.77108 Y71.35979
 X604.90106 Y71.03169
 X604.68627 Y70.63811
 X604.00000 Y70.09144
 X603.43354 Y69.64311
 X603.22440 Y69.31207
 X603.31914 Y69.10183
 X603.69098 Y69.01531
 X604.81851 Y69.31927
 X605.52793 Y70.15556
 X605.61149 Y71.30688
 X605.04435 Y72.44656
 X604.55692 Y73.13390
 X604.44417 Y73.62218
 X604.65067 Y74.00268
 X605.20826 Y74.32381
 X605.67072 Y74.55201
 X605.70452 Y74.72720
 X605.46438 Y74.86345
 X604.75000 Y74.92105
 X604.08156 Y74.84420
 X603.51406 Y74.56066
 X603.13524 Y74.11735
G0 Z25.00000
 X607.58974 Y73.37325
G1 Z0.00000
 X607.46687 Y72.00655
 X608.04214 Y70.53245
 X609.09131 Y69.40034
 X610.31357 Y69.00000
 X610.52249 Y69.14348
 X610.49813 Y69.43128
 X610.11674 Y69.90263
 X609.44113 Y70.46820
 X608.16823 Y71.45434
 X608.06321 Y71.74337
 X608.27730 Y71.92575
 X609.75000 Y71.96820
 X610.64889 Y72.08681
 X611.36970 Y72.41129
 X611.83345 Y72.90131
 X612.00000 Y73.50000
 X611.44452 Y74.55966
 X610.08907 Y74.96151
 X608.53724 Y74.50516
G0 Z25.00000
 X614.00000 Y72.00000
G1 Z0.00000
 X614.02783 Y70.84982
 X614.11353 Y69.88125
 X614.23366 Y69.12656
 X614.38650 Y69.00000
 X614.55759 Y69.12314
 X614.78881 Y69.88125
 X615.01664 Y70.85001
 X615.21331 Y72.00000
 X615.32243 Y73.14999
 X615.28140 Y74.11875
 X615.11571 Y74.79799
 X614.82681 Y75.00000
 X614.50761 Y74.80381
 X614.24288 Y74.11875
 X614.05994 Y73.14958
G0 Z25.00000
 X623.58974 Y73.37325
G1 Z0.00000
 X623.46687 Y72.00655
 X624.04214 Y70.53245
 X625.09131 Y69.40034
 X626.31357 Y69.00000
 X626.52249 Y69.14348
 X626.49813 Y69.43128
 X626.11674 Y69.90263
 X625.44113 Y70.46820
 X624.16823 Y71.45434
 X624.06321 Y71.74337
 X624.27730 Y71.92575
 X625.75000 Y71.96820
 X626.64889 Y72.08681
 X627.36970 Y72.41129
 X627.83345 Y72.90131
 X628.00000 Y73.50000
 X627.44452 Y74.55966
 X626.08907 Y74.96151
 X624.53724 Y74.50516
G0 Z25.00000
 X633.00000 Y72.00000
G1 Z0.00000
 X632.77983 Y70.73599
 X632.14192 Y70.07495
 X631.30376 Y70.16420
 X630.50000 Y71.00000
 X630.24520 Y71.93090
 X630.50268 Y72.94245
 X631.17475 Y73.71664
 X632.05902 Y74.00000
 X632.41858 Y73.84964
 X632.72359 Y73.41250
 X632.93082 Y72.76556
G0 Z25.00000
 X633.00000 Y76.61663
G1 Z0.00000
 X632.85074 Y76.04869
 X632.41250 Y75.48599
 X631.76469 Y75.01341
 X631.00000 Y74.71025
 X629.68457 Y73.98658
 X629.07177 Y72.80366
 X629.31904 Y71.40457
 X630.37325 Y70.10519
 X632.10352 Y69.32054
 X633.61914 Y69.75171
 X634.66011 Y71.43012
 X635.00000 Y74.10699
 X634.92758 Y75.59889
 X634.70625 Y76.85643
 X634.38682 Y77.75273
 X634.00000 Y78.00000
 X633.61866 Y77.89337
 X633.29375 Y77.59364
 X633.07502 Y77.14532
G0 Z25.00000
 X618.18629 Y74.00000
G1 Z0.00000
 X618.22277 Y73.28533
 X618.38097 Y72.35968
 X618.62071 Y71.38934
 X618.91324 Y70.52230
 X619.43235 Y69.30043
 X619.74770 Y69.13064
 X620.09645 Y69.36897
 X620.90781 Y70.82774
 X621.33953 Y71.78958
 X621.62804 Y72.79111
 X621.74693 Y73.68918
 X621.64380 Y74.30544
 X621.45243 Y74.62596
 X621.27744 Y74.63504
 X621.13798 Y74.36097
 X621.07895 Y73.75000
 X620.98023 Y73.08043
 X620.75098 Y72.51406
 X620.43323 Y72.13224
 X620.07332 Y72.00000
 X619.68505 Y72.12737
 X619.28452 Y72.51406
 X618.93286 Y73.08047
 X618.68933 Y73.75000
 X618.47018 Y74.53798
 X618.33317 Y74.70123
 X618.22443 Y74.64034
G0 Z25.00000
 X597.18358 Y72.25855
G1 Z0.00000
 X597.43220 Y71.08033
 X597.87711 Y70.18784
 X598.49947 Y69.61272
 X599.26960 Y69.36034
 X600.12271 Y69.29193
 X600.26027 Y69.35237
 X600.23307 Y69.44438
 X599.51960 Y69.67511
 X598.35233 Y70.28861
 X598.05299 Y71.09230
 X598.63053 Y71.76671
 X599.96861 Y72.00000
 X600.81623 Y72.08680
 X601.31408 Y72.36739
 X601.49232 Y72.83690
 X601.36163 Y73.50000
 X600.99557 Y74.07358
 X600.37952 Y74.55938
 X599.61868 Y74.88796
 X598.82659 Y75.00000
 X597.87224 Y74.86062
 X597.33155 Y74.44060
 X597.10943 Y73.65098
G0 Z25.00000
 X594.00000 Y74.94098
G1 Z0.00000
 X593.92344 Y74.58195
 X593.70625 Y74.27641
 X593.38173 Y74.07162
 X593.00000 Y74.00000
 X592.61862 Y74.12002
 X592.29375 Y74.45796
 X592.07454 Y74.96290
 X592.00000 Y75.55902
 X592.07327 Y76.11065
 X592.29375 Y76.47853
 X592.62035 Y76.60794
 X593.00000 Y76.50000
 X593.38252 Y76.19380
 X593.70625 Y75.78710
 X593.92670 Y75.34656
G0 Z25.00000
 X583.00000 Y74.20000
G1 Z0.00000
 X583.08299 Y73.80863
 X583.36473 Y73.27027
 X583.76645 Y72.69250
 X584.24164 Y72.15836
 X584.80503 Y71.48464
 X584.93295 Y70.97684
 X584.69385 Y70.50925
 X583.99164 Y69.97367
 X583.33570 Y69.52486
 X583.15799 Y69.25076
 X583.27200 Y69.07307
 X583.78139 Y69.01531
 X584.90638 Y69.45228
 X585.65274 Y70.63803
 X585.71416 Y72.01909
 X585.03256 Y72.97987
 X584.44062 Y73.40206
 X584.30939 Y73.70970
 X584.48796 Y73.98960
 X585.13685 Y74.30000
 X585.70983 Y74.55997
 X585.75737 Y74.73162
 X585.54420 Y74.86407
 X584.75000 Y74.92105
 X584.08001 Y74.89260
 X583.51406 Y74.74181
 X583.13221 Y74.49960
G0 Z25.00000
 X569.50000 Y72.00000
G1 Z0.00000
 X569.40631 Y71.45917
 X569.13281 Y70.93594
 X568.72775 Y70.50918
 X568.25000 Y70.25000
 X567.75092 Y70.24990
 X567.34615 Y70.54872
 X567.08464 Y71.15120
 X567.00000 Y72.00000
 X567.08464 Y72.84880
 X567.34615 Y73.45128
 X567.75092 Y73.75010
 X568.25000 Y73.75000
 X568.72775 Y73.49082
 X569.13281 Y73.06406
 X569.40631 Y72.54083
G0 Z25.00000
 X563.23200 Y72.00000
G1 Z0.00000
 X563.25971 Y70.74802
 X563.36634 Y70.04219
 X563.52101 Y69.99086
 X563.68933 Y70.25000
 X563.83153 Y71.04727
 X563.87797 Y72.00000
 X563.83153 Y72.95273
 X563.68933 Y73.75000
 X563.52101 Y74.00914
 X563.36634 Y73.95781
 X563.25971 Y73.25198
G0 Z25.00000
 X551.28601 Y73.50000
G1 Z0.00000
 X551.31528 Y71.71172
 X551.41842 Y70.78060
 X551.56139 Y70.76172
 X551.71758 Y71.26375
 X551.84629 Y72.48519
 X551.88596 Y73.87255
 X551.83998 Y75.20952
 X551.70393 Y76.26375
 X551.54918 Y76.45569
 X551.40315 Y76.37435
 X551.30763 Y75.29708
G0 Z25.00000
 X548.00000 Y74.00000
G1 Z0.00000
 X548.07239 Y72.46706
 X548.29375 Y71.17500
 X548.61287 Y70.25105
 X549.00000 Y70.00000
 X549.38713 Y70.25105
 X549.70625 Y71.17500
 X549.92761 Y72.46706
 X550.00000 Y74.00000
 X549.92761 Y75.53294
 X549.70625 Y76.82500
 X549.38713 Y77.74895
 X549.00000 Y78.00000
 X548.61287 Y77.74895
 X548.29375 Y76.82500
 X548.07239 Y75.53294
G0 Z25.00000
 X544.50000 Y74.00000
G1 Z0.00000
 X544.65651 Y73.61790
 X544.62540 Y73.29375
 X544.41396 Y73.07829
 X544.05902 Y73.00000
 X543.65476 Y73.07612
 X543.31109 Y73.29375
 X543.08106 Y73.61844
 X543.00000 Y74.00000
 X543.03234 Y74.38285
 X543.12954 Y74.70625
 X543.27235 Y74.92554
 X543.44098 Y75.00000
 X543.65171 Y74.93446
 X543.93398 Y74.70625
 X544.23101 Y74.38277
G0 Z25.00000
 X527.14983 Y71.75000
G1 Z0.00000
 X527.25352 Y69.58534
 X527.33994 Y69.40582
 X527.43681 Y69.44071
 X527.71625 Y71.25000
 X527.97661 Y72.30229
 X528.41207 Y73.19219
 X528.94606 Y73.79760
 X529.50000 Y74.00000
 X530.05394 Y73.79760
 X530.58793 Y73.19219
 X531.02339 Y72.30229
 X531.28375 Y71.25000
 X531.70034 Y68.50000
 X531.85017 Y71.25000
 X532.18826 Y73.11994
 X532.98895 Y73.94695
 X533.72951 Y73.59007
 X534.00000 Y72.00000
 X534.07369 Y71.23458
 X534.29375 Y70.58750
 X534.61812 Y70.15148
 X535.00000 Y70.00000
 X535.63881 Y70.24367
 X535.95367 Y70.85108
 X535.88048 Y71.89777
 X535.39301 Y73.41821
 X534.87936 Y74.11358
 X533.97467 Y74.60944
 X532.65791 Y74.90654
 X530.89301 Y75.00000
 X528.46760 Y74.92351
 X527.55864 Y74.55092
 X527.16048 Y73.73972
G0 Z25.00000
 X524.00000 Y71.91667
G1 Z0.00000
 X523.64278 Y70.67272
 X522.77080 Y70.27009
 X521.76979 Y70.90024
 X521.17668 Y72.33287
 X521.15963 Y73.00171
 X521.38070 Y73.53647
 X521.82019 Y73.87853
 X522.42668 Y74.00000
 X523.05465 Y73.84677
 X523.56120 Y73.41896
 X523.88860 Y72.75155
G0 Z25.00000
 X509.00000 Y72.50000
G1 Z0.00000
 X509.06437 Y71.54239
 X509.25950 Y70.73438
 X509.54437 Y70.17754
 X509.88342 Y70.00000
 X510.25605 Y70.17000
 X510.64772 Y70.73438
 X510.99712 Y71.54269
 X511.24475 Y72.50000
 X511.37782 Y73.60896
 X511.26554 Y74.37865
 X510.91799 Y74.82902
 X510.36133 Y75.00000
 X509.82568 Y74.81335
 X509.38613 Y74.29089
 X509.09644 Y73.48870
G0 Z25.00000
 X499.40925 Y71.29672
G1 Z0.00000
 X499.50116 Y69.18950
 X499.72974 Y68.22939
 X500.12705 Y68.00959
 X500.68419 Y68.29672
 X501.16856 Y68.93429
 X501.64391 Y69.88091
 X502.04059 Y70.95459
 X502.28839 Y72.00000
 X502.42621 Y72.89712
 X502.45944 Y73.39844
 X502.39035 Y73.42660
 X502.28088 Y73.25000
 X501.70887 Y72.30032
 X500.95415 Y72.05759
 X500.21943 Y72.56848
 X499.73257 Y73.75000
 X499.59387 Y73.86119
 X499.46679 Y73.75123
 X499.40044 Y72.81155
G0 Z25.00000
 X492.00000 Y71.55902
G1 Z0.00000
 X491.71640 Y70.91965
 X490.96909 Y70.52921
 X490.10194 Y70.54388
 X489.51008 Y70.98369
 X489.39782 Y71.36964
 X489.52444 Y71.70146
 X489.89027 Y71.92539
 X490.44098 Y72.00000
 X491.03837 Y71.96802
 X491.54204 Y71.87046
 X491.89701 Y71.72915
G0 Z25.00000
 X475.00000 Y71.00000
G1 Z0.00000
 X474.92366 Y70.61836
 X474.70625 Y70.29375
 X474.38164 Y70.07634
 X474.00000 Y70.00000
 X473.61836 Y70.07634
 X473.29375 Y70.29375
 X473.07634 Y70.61836
 X473.00000 Y71.00000
 X473.07634 Y71.38164
 X473.29375 Y71.70625
 X473.61836 Y71.92366
 X474.00000 Y72.00000
 X474.38164 Y71.92366
 X474.70625 Y71.70625
 X474.92366 Y71.38164
G0 Z25.00000
 X459.00000 Y71.54484
G1 Z0.00000
 X459.34311 Y71.02344
 X460.54094 Y70.64480
 X461.80854 Y70.50968
 X462.39870 Y70.83609
 X462.41204 Y71.13176
 X462.15836 Y71.40761
 X461.63826 Y71.62095
 X460.93072 Y71.73027
 X460.19050 Y71.76220
 X459.56715 Y71.73579
 X459.10004 Y71.66685
G0 Z25.00000
 X458.00000 Y76.60699
G1 Z0.00000
 X458.08711 Y76.42067
 X458.44063 Y76.16034
 X458.92544 Y75.88749
 X459.50000 Y75.63837
 X460.07437 Y75.48887
 X460.55937 Y75.51638
 X460.87751 Y75.71081
 X461.00000 Y76.03139
 X460.88451 Y76.40079
 X460.55937 Y76.71547
 X460.07353 Y76.92777
 X459.50000 Y77.00000
 X458.92518 Y76.97153
 X458.44063 Y76.88455
 X458.09608 Y76.75893
G0 Z25.00000
 X424.63009 Y206.00000
G1 Z0.00000
 X435.25072 Y173.25989
 X437.73945 Y165.36065
 X438.89558 Y161.30805
 X438.62036 Y160.28703
 X437.11875 Y159.98084
 X425.88117 Y164.57961
 X414.07761 Y169.73379
 X402.73201 Y175.19787
 X388.04896 Y183.25361
 X373.62253 Y192.44587
 X359.45389 Y202.77552
 X345.54368 Y214.24103
 X341.58736 Y217.69576
 X349.45772 Y226.29527
 X363.28589 Y242.91072
 X375.52537 Y260.78944
 X385.73079 Y279.22364
 X393.46426 Y297.50000
 X394.42106 Y297.50149
 X398.41872 Y286.09777
 X405.35731 Y265.26921
G0 Z25.00000
 X411.50000 Y290.77930
G1 Z0.00000
 X425.63148 Y283.44032
 X441.26279 Y276.95051
 X457.70747 Y271.56305
 X474.28150 Y267.52907
 X485.19062 Y265.32912
 X475.34531 Y258.94775
 X465.03694 Y252.73300
 X452.63992 Y246.12963
 X440.06250 Y240.08094
 X429.21497 Y235.58064
 X425.25025 Y234.13091
 X421.85416 Y232.97228
 X418.91367 Y232.02577
 X418.58541 Y232.11327
 X418.37523 Y232.47059
 X415.10256 Y242.31276
 X411.47137 Y253.30816
 X407.22700 Y266.29185
 X400.35358 Y287.53153
 X398.19538 Y294.94553
 X397.89581 Y297.84404
 X398.86165 Y298.33174
 X400.44432 Y297.32727
 X403.66248 Y295.39052
 X407.47794 Y293.12853
G0 Z25.00000
 X315.35566 Y361.27929
G1 Z0.00000
 X324.35986 Y359.80923
 X340.01405 Y359.40202
 X355.65285 Y359.76097
 X364.45743 Y361.21092
 X366.76909 Y361.83712
 X368.77978 Y362.30197
 X370.46918 Y362.63219
 X370.80605 Y362.52728
 X370.91244 Y361.26995
 X366.36485 Y355.00734
 X361.22467 Y348.48395
 X356.00817 Y342.63391
 X342.96482 Y330.73812
 X328.17552 Y320.56341
 X311.85668 Y312.26204
 X294.25000 Y305.95603
 X291.52402 Y305.22826
 X289.59416 Y304.88294
 X288.35057 Y304.85714
 X288.00000 Y305.23446
 X288.12692 Y306.07058
 X290.70032 Y314.33034
 X293.66880 Y323.72294
 X297.19258 Y334.66388
 X301.43157 Y347.49172
 X304.49368 Y356.11048
 X306.90972 Y362.39543
 X307.79823 Y363.00000
 X308.66440 Y362.91254
 X310.60112 Y362.49454
 X312.89945 Y361.93820
G0 Z25.00000
 X216.48762 Y343.49478
G1 Z0.00000
 X228.82662 Y332.51456
 X242.52394 Y322.47238
 X256.92626 Y313.80828
 X271.37572 Y306.95700
 X275.44876 Y305.24056
 X278.87912 Y303.69725
 X281.79152 Y302.31812
 X282.00000 Y301.98700
 X281.34675 Y300.84493
 X270.74539 Y294.65695
 X260.54598 Y288.94007
 X252.71005 Y285.02054
 X238.69186 Y279.32101
 X221.34326 Y273.65300
 X204.84706 Y269.12803
 X195.69698 Y268.00000
 X193.83274 Y268.52488
 X192.71994 Y269.91213
 X191.99270 Y273.03858
 X190.92510 Y281.92122
 X189.91877 Y300.10651
 X190.72577 Y321.31928
 X193.01245 Y341.90132
 X196.58272 Y357.98814
 X198.21892 Y363.47628
 X203.27837 Y357.48814
 X205.78793 Y354.63150
 X209.24561 Y350.90748
 X212.99702 Y346.99779
G0 Z25.00000
 X210.85014 Y360.49156
G1 Z0.00000
 X221.67244 Y357.26729
 X231.82446 Y355.17417
 X242.51477 Y354.01057
 X255.00000 Y353.60523
 X267.33227 Y353.89300
 X277.05830 Y354.88163
 X286.10731 Y356.80410
 X296.25000 Y359.97215
 X299.22170 Y361.01562
 X301.72274 Y361.87673
 X303.95769 Y362.63591
 X303.99761 Y362.60662
 X303.80160 Y361.46788
 X294.53743 Y333.38396
 X285.20679 Y305.11639
 X284.81699 Y304.48365
 X283.55650 Y304.22739
 X274.63019 Y307.89892
 X265.66964 Y311.85613
 X258.00000 Y315.70153
 X242.63726 Y324.92486
 X228.83968 Y335.20208
 X215.90949 Y347.11387
 X203.14591 Y361.25000
 X202.58874 Y362.37701
 X203.00116 Y362.84509
 X205.03900 Y362.41962
G0 Z25.00000
 X167.57584 Y431.00000
G1 Z0.00000
 X171.58881 Y416.33187
 X176.68369 Y402.22883
 X182.78398 Y388.88737
 X189.80776 Y376.50000
 X192.26063 Y372.47864
 X193.44169 Y370.13040
 X193.76656 Y368.76466
 X193.31390 Y368.15654
 X189.96302 Y367.94682
 X179.03206 Y369.09702
 X167.79328 Y370.53537
 X158.77356 Y372.07237
 X148.10382 Y374.62655
 X135.57327 Y378.46320
 X123.09402 Y382.92210
 X112.55495 Y387.39843
 X108.72106 Y389.20604
 X105.42361 Y390.79603
 X102.57458 Y392.19423
 X102.21445 Y392.45222
 X102.08836 Y393.36541
 X107.25978 Y402.52657
 X112.46237 Y411.38782
 X117.08547 Y418.61696
 X125.72920 Y430.29393
 X136.62447 Y442.95216
 X147.98300 Y454.68180
 X158.00000 Y463.43432
 X162.50000 Y466.95725
 X163.70326 Y454.72863
 X164.35666 Y449.21260
 X165.33717 Y442.71403
 X166.46586 Y436.28619
G0 Z25.00000
 X229.00000 Y463.61047
G1 Z0.00000
 X230.18057 Y451.43451
 X233.81254 Y437.16633
 X239.17619 Y422.92461
 X245.64898 Y410.76400
 X246.48204 Y409.31917
 X246.99956 Y408.10567
 X247.16493 Y407.27306
 X246.91005 Y407.00000
 X244.17779 Y407.45238
 X235.82695 Y410.37729
 X227.60472 Y413.47626
 X222.20690 Y415.89556
 X206.89910 Y425.14649
 X192.11462 Y437.16899
 X178.75203 Y451.14796
 X167.69175 Y466.25000
 X165.95389 Y469.00000
 X229.00000
G0 Z25.00000
 X284.21321 Y464.98354
G1 Z0.00000
 X273.50740 Y456.06975
 X264.36052 Y444.72601
 X257.10345 Y431.37513
 X252.01357 Y416.50000
 X251.26653 Y413.81688
 X250.49835 Y411.55625
 X249.77554 Y409.77083
 X249.36367 Y409.50000
 X248.87717 Y409.77658
 X247.06038 Y412.87813
 X245.00753 Y416.59167
 X242.73549 Y421.00000
 X238.36601 Y430.78981
 X234.98739 Y440.74067
 X232.63764 Y450.73400
 X231.34670 Y460.65097
 X230.70495 Y469.00000
 X290.22791
G0 Z25.00000
 X359.18161 Y508.75481
G1 Z0.00000
 X372.83142 Y498.24013
 X381.27248 Y483.35306
 X383.20446 Y466.35652
 X378.34858 Y449.84379
 X362.36795 Y432.81306
 X340.00000 Y426.53303
 X317.63205 Y432.81306
 X301.65142 Y449.84379
 X296.66084 Y467.83135
 X299.66052 Y486.02290
 X310.20486 Y501.35390
 X326.48694 Y511.25608
 X329.45057 Y512.10568
 X332.58033 Y512.60191
 X336.39937 Y512.80643
 X341.59107 Y512.75282
 X347.67811 Y512.46369
 X351.28495 Y511.93788
 X354.54596 Y510.88351
G0 Z25.00000
 X426.43415 Y525.75000
G1 Z0.00000
 X421.75655 Y510.85706
 X414.29537 Y496.99805
 X404.53010 Y484.98794
 X393.02280 Y475.57515
 X390.87590 Y474.20525
 X388.95939 Y473.05020
 X387.32372 Y472.11558
 X386.88131 Y472.00000
 X386.56549 Y472.22317
 X385.95035 Y474.04490
 X385.29549 Y476.29272
 X384.64493 Y478.96136
 X383.85815 Y481.99236
 X382.78949 Y485.34833
 X381.62103 Y488.51584
 X380.53612 Y490.92873
 X377.99938 Y495.93474
 X383.24969 Y499.85690
 X391.51885 Y505.95595
 X408.18691 Y518.06999
 X427.25437 Y531.90024
 X427.56183 Y532.00000
 X427.62497 Y531.92472
 X427.31058 Y530.16406
 X426.92703 Y528.14670
G0 Z25.00000
 X443.50000 Y529.83689
G1 Z0.00000
 X461.79105 Y521.72662
 X479.57484 Y509.77176
 X495.85148 Y494.72575
 X509.65418 Y477.40089
 X515.24515 Y469.17007
 X514.11651 Y456.49808
 X511.17517 Y435.69233
 X506.17784 Y416.15374
 X499.05894 Y397.71079
 X489.77546 Y380.18104
 X484.50000 Y371.50000
 X483.82847 Y386.00000
 X481.24266 Y408.94487
 X475.72276 Y429.64700
 X467.11565 Y448.47699
 X455.32107 Y465.83233
 X451.01522 Y471.16466
 X389.56629 Y470.92009
 X395.53314 Y474.78239
 X398.28071 Y476.76064
 X401.65661 Y479.58414
 X405.07532 Y482.71920
 X408.00000 Y485.70511
 X415.01554 Y494.27694
 X420.41372 Y502.99510
 X424.68472 Y512.77811
 X428.30251 Y524.59403
 X430.50000 Y533.12486
 X434.00000 Y532.47919
 X435.75209 Y532.09613
 X438.23438 Y531.43667
 X440.94624 Y530.64866
G0 Z25.00000
 X444.43709 Y465.89822
G1 Z0.00000
 X432.33369 Y456.10793
 X416.63391 Y448.46259
 X399.86676 Y443.93177
 X384.58001 Y443.45453
 X378.17100 Y444.14087
 X381.10874 Y450.41867
 X382.31304 Y453.26962
 X383.50183 Y456.65945
 X384.50475 Y460.04015
 X385.13009 Y462.84824
 X386.21370 Y469.00000
 X447.37418
G0 Z25.00000
 X448.59113 Y459.44374
G1 Z0.00000
 X447.23991 Y449.99910
 X444.87775 Y440.31195
 X441.59684 Y430.70505
 X437.49446 Y421.50000
 X435.27400 Y417.14666
 X433.16437 Y413.16521
 X431.34562 Y409.85835
 X430.49959 Y408.57304
 X428.84981 Y407.81413
 X426.61721 Y408.51935
 X422.10676 Y411.56232
 X400.62317 Y427.21997
 X381.74634 Y441.00000
 X389.62317 Y441.01736
 X403.83590 Y442.45232
 X418.19889 Y446.65629
 X431.57250 Y453.22394
 X442.84274 Y461.68631
 X445.03922 Y463.69178
 X446.95213 Y465.38867
 X448.62609 Y466.83996
 X448.88793 Y466.95492
 X449.03128 Y466.82347
 X448.96077 Y464.76710
 X448.82587 Y462.33819
G0 Z25.00000
 X458.77967 Y457.70592
G1 Z0.00000
 X468.23061 Y441.63889
 X475.10171 Y424.64238
 X479.51888 Y406.24840
 X481.63681 Y386.00000
 X481.89946 Y373.18658
 X479.90560 Y371.23622
 X475.96633 Y372.53424
 X456.66197 Y386.43421
 X447.45713 Y393.14911
 X439.54407 Y398.96419
 X432.65854 Y404.05294
 X431.85271 Y404.74729
 X431.59723 Y405.41371
 X431.80321 Y406.46892
 X432.43809 Y407.86756
 X433.53188 Y409.61290
 X440.03068 Y421.17259
 X445.71331 Y435.77376
 X449.71865 Y450.59149
 X451.00000 Y462.73291
 X451.31216 Y465.70570
 X452.27820 Y466.10725
 X454.07272 Y464.39795
G0 Z25.00000
 X530.22956 Y456.25002
G1 Z0.00000
 X538.18219 Y448.57972
 X545.85693 Y440.35583
 X553.07991 Y431.77380
 X559.67786 Y423.02966
 X565.48466 Y414.41544
 X571.80351 Y404.13067
 X577.93975 Y393.66893
 X577.78071 Y392.44737
 X575.30186 Y390.75865
 X564.49547 Y386.13643
 X553.44712 Y381.67127
 X544.50000 Y378.46696
 X533.03853 Y375.00696
 X522.15341 Y372.34856
 X511.27962 Y370.36856
 X499.85458 Y368.94832
 X489.17972 Y367.98259
 X486.65351 Y368.35698
 X486.13449 Y369.71096
 X488.34835 Y373.51117
 X498.34961 Y390.96572
 X506.67968 Y411.23793
 X512.78971 Y432.73573
 X516.13916 Y453.87520
 X517.35735 Y466.88173
 X520.15824 Y464.88732
 X521.68291 Y463.71347
 X524.27206 Y461.52742
 X527.24066 Y458.93948
G0 Z25.00000
 X585.42831 Y520.50000
G1 Z0.00000
 X587.13411 Y511.12147
 X588.50471 Y501.65489
 X589.61060 Y491.55353
 X590.51907 Y480.25000
 X591.15015 Y471.00000
 X518.96728
 X529.23364 Y479.86916
 X541.41493 Y491.39661
 X552.86030 Y504.29095
 X563.51476 Y518.49021
 X573.32669 Y533.92675
 X579.42444 Y544.35350
 X581.22213 Y538.42675
 X582.07453 Y535.34889
 X583.19924 Y530.71598
 X584.37434 Y525.52893
G0 Z25.00000
 X603.02895 Y636.62296
G1 Z0.00000
 X600.00568 Y615.15709
 X595.40170 Y594.12695
 X589.37385 Y574.14910
 X582.08188 Y555.84087
 X579.11077 Y549.28822
 X573.30539 Y552.13126
 X555.53204 Y559.85537
 X537.08856 Y565.95581
 X517.98011 Y570.42401
 X498.21679 Y573.26355
 X485.93357 Y574.50000
 X514.42665 Y595.25000
 X525.41902 Y603.20496
 X534.83094 Y609.90469
 X543.18643 Y615.78191
 X543.87653 Y616.00000
 X544.26721 Y616.07167
 X544.65019 Y616.28120
 X544.96761 Y616.59137
 X545.16667 Y616.95726
 X545.61918 Y617.57796
 X553.92083 Y623.82568
 X563.35834 Y630.84437
 X574.50000 Y638.99485
 X603.50000 Y660.07518
 X603.82395 Y653.78759
 X603.87319 Y650.63117
 X603.72405 Y646.15185
 X603.43363 Y641.24827
G0 Z25.00000
 X619.03800 Y640.70066
G1 Z0.00000
 X626.06679 Y628.56433
 X632.81425 Y615.71928
 X638.89237 Y602.94505
 X643.90113 Y591.02995
 X649.41130 Y576.66820
 X650.46149 Y572.36141
 X650.10968 Y568.57997
 X647.46088 Y560.85234
 X638.99602 Y541.15784
 X627.90449 Y520.42028
 X615.23259 Y500.40620
 X602.00000 Y482.88554
 X593.50000 Y472.64365
 X592.80214 Y481.07182
 X591.13967 Y497.97495
 X589.14328 Y512.32950
 X586.61622 Y525.45189
 X583.35095 Y538.56878
 X580.83735 Y547.63756
 X585.32879 Y558.15305
 X589.71354 Y569.26747
 X593.95557 Y581.76831
 X597.66699 Y594.40412
 X600.44384 Y605.92522
 X602.47597 Y616.73951
 X604.29061 Y628.94791
 X605.61865 Y640.32280
 X606.01365 Y647.97014
 X606.06492 Y650.25892
 X606.20737 Y652.56312
 X606.41083 Y654.58108
 X606.65395 Y655.84048
 X607.28058 Y658.18095
 X609.56945 Y655.34048
 X610.85511 Y653.58721
 X613.29499 Y649.86834
 X616.12135 Y645.42649
G0 Z25.00000
 X656.90454 Y550.92216
G1 Z0.00000
 X660.97291 Y532.65411
 X664.19310 Y513.22841
 X666.30618 Y494.58018
 X666.99658 Y478.75000
 X667.00000 Y471.00000
 X594.74103
 X598.39472 Y475.25000
 X615.09431 Y496.48460
 X629.61624 Y518.79188
 X641.77003 Y541.86541
 X651.38266 Y565.39313
 X651.67116 Y566.08590
 X651.99025 Y566.59180
 X652.28657 Y566.84605
 X652.51804 Y566.81529
 X652.77040 Y566.38350
 X654.00085 Y561.95241
 X655.36963 Y556.86784
G0 Z25.00000
 X664.90007 Y467.24360
G1 Z0.00000
 X648.20402 Y447.33056
 X630.00075 Y429.24540
 X610.49448 Y413.18575
 X589.89989 Y399.33279
 X582.87877 Y395.26441
 X580.51802 Y394.90819
 X578.68644 Y396.23674
 X575.32011 Y402.41434
 X571.57803 Y409.07528
 X566.34866 Y417.25988
 X560.54305 Y425.64248
 X554.96163 Y433.00000
 X548.61221 Y440.35101
 X539.14808 Y450.20102
 X529.47591 Y459.70863
 X522.53057 Y465.79690
 X518.56114 Y468.98613
 X592.39771 Y468.98667
 X638.70400 Y468.94974
 X655.39645 Y468.73574
 X664.39062 Y468.35783
G0 Z25.00000
 X666.63715 Y452.25000
G1 Z0.00000
 X665.23045 Y434.53567
 X662.71063 Y416.25258
 X659.17366 Y397.97920
 X654.71583 Y380.29316
 X651.54641 Y369.08633
 X642.52320 Y363.13923
 X627.40707 Y353.89008
 X611.19673 Y345.34671
 X594.67462 Y337.89109
 X578.62478 Y331.90866
 X570.14988 Y329.30972
 X559.98568 Y326.59509
 X549.83312 Y324.08243
 X548.03116 Y324.18622
 X547.86945 Y324.59981
 X549.45932 Y327.63908
 X551.50031 Y331.25911
 X554.08879 Y335.50000
 X560.37415 Y346.15492
 X566.59044 Y358.00648
 X572.18486 Y369.92759
 X576.58165 Y380.78068
 X580.37298 Y391.06136
 X590.69281 Y397.20872
 X610.19898 Y410.31878
 X630.25261 Y426.76547
 X648.78771 Y444.67817
 X663.69271 Y462.21356
 X664.79782 Y463.63939
 X665.79404 Y464.84696
 X666.66008 Y465.84042
 X666.90400 Y465.96356
 X667.06092 Y465.81784
 X666.99227 Y461.95023
 X666.86538 Y457.52000
G0 Z25.00000
 X577.00000 Y388.12568
G1 Z0.00000
 X576.53416 Y385.77467
 X572.59197 Y376.37016
 X568.21409 Y366.44124
 X563.89700 Y357.36088
 X558.23602 Y346.72347
 X551.44928 Y335.42446
 X544.60270 Y324.76447
 X542.94226 Y324.18591
 X542.18797 Y324.56923
 X533.94101 Y330.44577
 X524.61716 Y337.13666
 X513.74457 Y345.01444
 X494.98238 Y358.70904
 X489.66130 Y362.92777
 X488.68642 Y364.71219
 X489.53790 Y365.75592
 X510.07930 Y368.02703
 X530.43999 Y372.16734
 X550.06269 Y378.04444
 X568.39454 Y385.51376
 X573.54690 Y387.88690
 X575.62994 Y388.67170
 X576.58974 Y388.67499
G0 Z25.00000
 X647.54157 Y357.91097
G1 Z0.00000
 X643.64062 Y347.93052
 X638.42918 Y335.95994
 X632.85563 Y324.05258
 X627.82122 Y314.24572
 X620.90294 Y302.13528
 X613.49472 Y290.39778
 X606.37134 Y279.82902
 X604.66549 Y279.29812
 X600.16748 Y281.76581
 X574.64129 Y300.73002
 X548.01241 Y320.61364
 X548.14270 Y321.44949
 X549.06758 Y321.72398
 X551.89192 Y322.41994
 X555.26220 Y323.22680
 X559.00000 Y324.09442
 X578.85765 Y329.69214
 X599.46505 Y337.56619
 X620.08739 Y347.39873
 X639.99393 Y358.87285
 X643.64921 Y361.14786
 X646.76052 Y363.02951
 X649.51297 Y364.65943
 X649.69725 Y364.63608
 X649.74399 Y364.44564
 X649.15040 Y362.57420
 X648.43321 Y360.42405
G0 Z25.00000
 X598.91255 Y269.79611
G1 Z0.00000
 X587.00179 Y255.52699
 X572.33991 Y239.97482
 X557.04893 Y225.24257
 X543.22771 Y213.50000
 X533.04242 Y205.50000
 X523.27121 Y205.80484
 X498.68424 Y207.80676
 X473.67350 Y212.28350
 X449.02117 Y219.06599
 X425.50636 Y227.96856
 X420.51272 Y230.13780
 X430.50636 Y233.94348
 X444.34884 Y239.66169
 X457.48393 Y246.00368
 X469.96105 Y252.99607
 X481.83110 Y260.66392
 X488.16220 Y265.04641
 X499.14087 Y263.89687
 X512.01260 Y263.15610
 X529.84372 Y263.29148
 X547.75798 Y264.08328
 X561.00000 Y265.49528
 X566.43560 Y266.41954
 X573.38125 Y267.79681
 X580.60891 Y269.36280
 X587.00000 Y270.89040
 X592.58565 Y272.27623
 X597.34947 Y273.40666
 X601.55630 Y274.37197
 X601.87055 Y274.32013
 X601.92189 Y274.10343
 X601.15449 Y272.89719
 X600.16230 Y271.45988
G0 Z25.00000
 X555.21060 Y312.20565
G1 Z0.00000
 X602.92120 Y277.50087
 X599.21060 Y276.17748
 X592.77637 Y274.26532
 X581.25178 Y271.63916
 X568.88752 Y269.12590
 X558.46570 Y267.36761
 X545.88646 Y266.16667
 X525.80260 Y265.55290
 X505.86314 Y265.46961
 X494.96465 Y266.29514
 X489.42931 Y267.09027
 X490.73997 Y276.79514
 X492.25861 Y297.48183
 X491.53944 Y320.75198
 X488.85507 Y343.44664
 X484.38981 Y362.32141
 X484.76534 Y362.64160
 X487.18500 Y361.31255
 X490.78880 Y358.98301
 X495.65995 Y355.52663
 X502.82669 Y350.31207
 X518.03697 Y339.24691
 X536.07546 Y326.12486
G0 Z25.00000
 X485.91185 Y347.35674
G1 Z0.00000
 X487.87776 Y336.46899
 X489.11667 Y326.79211
 X489.78291 Y316.89381
 X490.00000 Y305.31208
 X489.75818 Y293.86218
 X489.03305 Y282.31734
 X488.04767 Y272.08957
 X486.96660 Y268.94595
 X482.71975 Y267.20298
 X462.13163 Y272.58976
 X440.89839 Y279.36264
 X423.50000 Y286.75046
 X416.51232 Y290.44543
 X407.67761 Y295.58156
 X398.51602 Y301.10064
 X398.00000 Y302.01686
 X398.19743 Y302.33364
 X400.42344 Y303.40581
 X403.08736 Y304.60547
 X406.25000 Y305.91708
 X424.64168 Y314.64628
 X442.35823 Y325.78705
 X458.68447 Y338.84788
 X472.92125 Y353.31497
 X481.48712 Y363.17244
 X482.70287 Y360.19296
 X483.29238 Y358.45685
 X484.14701 Y355.19329
 X485.05956 Y351.34888
G0 Z25.00000
 X456.75000 Y383.71611
G1 Z0.00000
 X465.66367 Y377.17776
 X473.17031 Y371.52983
 X479.72492 Y366.50592
 X480.00000 Y365.94749
 X479.14819 Y363.67314
 X471.07477 Y354.54924
 X462.83585 Y345.73030
 X456.10661 Y339.35940
 X443.83649 Y329.64352
 X429.97295 Y320.46570
 X415.70426 Y312.54180
 X402.22468 Y306.61116
 X397.94935 Y304.99593
 X403.33997 Y312.24796
 X415.25563 Y330.98572
 X423.94326 Y350.73981
 X429.22384 Y371.11186
 X431.00000 Y391.69001
 X431.05193 Y396.94935
 X431.26183 Y399.77527
 X431.64313 Y401.16710
 X432.25000 Y401.36162
 X433.18362 Y400.74483
 X439.96250 Y395.86623
 X447.74840 Y390.24403
G0 Z25.00000
 X401.75000 Y423.71611
G1 Z0.00000
 X410.66340 Y417.16688
 X418.17031 Y411.48475
 X424.68079 Y406.44629
 X425.00000 Y405.79404
 X424.55871 Y405.32062
 X421.04480 Y405.13101
 X416.20153 Y405.06630
 X409.25000 Y405.20131
 X399.88264 Y405.55407
 X394.60244 Y406.05544
 X390.22555 Y406.97820
 X384.73879 Y408.70552
 X377.56342 Y411.54075
 X371.12973 Y414.77044
 X365.35829 Y418.43847
 X360.16934 Y422.58773
 X355.61115 Y426.67546
 X361.65571 Y429.89718
 X364.28457 Y431.45011
 X367.19237 Y433.46419
 X369.92863 Y435.59914
 X372.01579 Y437.51609
 X373.74804 Y439.15350
 X375.38215 Y440.42948
 X376.75669 Y441.27454
 X377.41565 Y441.25924
 X378.23308 Y440.71970
 X385.01116 Y435.83616
 X392.75995 Y430.23694
G0 Z25.00000
 X368.71392 Y413.65453
G1 Z0.00000
 X380.04261 Y408.14696
 X393.93468 Y404.22041
 X408.28436 Y402.28927
 X421.00000 Y402.80752
 X424.08432 Y403.19206
 X426.16683 Y403.27395
 X427.54789 Y403.10336
 X428.23469 Y402.62655
 X429.01081 Y400.03988
 X428.92311 Y391.30224
 X428.44609 Y381.94316
 X427.50486 Y373.65880
 X424.90458 Y361.38740
 X420.65699 Y348.23310
 X415.26692 Y335.51997
 X409.21904 Y324.58082
 X407.82637 Y322.46846
 X405.61096 Y319.27395
 X403.07912 Y315.70503
 X400.56680 Y312.24540
 X396.68314 Y307.13981
 X394.43993 Y304.85146
 X392.03589 Y303.41138
 X388.00000 Y301.94296
 X374.08610 Y298.51652
 X357.59605 Y296.24564
 X340.61259 Y295.29946
 X325.16317 Y295.89205
 X315.81055 Y297.00351
 X305.34044 Y298.72553
 X295.73177 Y300.61630
 X292.14398 Y301.94955
 X292.11978 Y302.43310
 X293.50182 Y303.22228
 X295.98854 Y304.22503
 X299.64398 Y305.41897
 X309.72450 Y309.11267
 X321.26544 Y314.49541
 X332.35057 Y320.55893
 X341.00000 Y326.34538
 X349.08549 Y333.04340
 X357.32368 Y341.05663
 X364.84647 Y349.46591
 X370.75000 Y357.35180
 X374.19146 Y362.58530
 X375.51726 Y365.02612
 X375.74853 Y366.36966
 X375.15823 Y367.16667
 X374.44780 Y367.91640
 X365.80858 Y393.73556
 X357.41988 Y418.90089
 X357.00000 Y421.49479
 X357.18852 Y421.61104
 X358.10156 Y421.10674
 X359.31083 Y420.30870
 X360.75000 Y419.22833
 X362.48989 Y417.91227
 X364.63628 Y416.37839
 X366.82844 Y414.87597
G0 Z25.00000
 X335.09081 Y397.84601
G1 Z0.00000
 X341.31533 Y389.19449
 X348.19068 Y381.66065
 X356.01443 Y374.96177
 X365.08085 Y368.81044
 X371.16263 Y365.12088
 X367.33132 Y364.09898
 X360.19610 Y362.55123
 X352.58281 Y361.58666
 X344.26441 Y361.18355
 X335.00000 Y361.32817
 X325.19540 Y362.06354
 X316.13036 Y363.40595
 X308.64176 Y365.02400
 X307.64827 Y366.50000
 X307.82650 Y367.26935
 X310.33468 Y375.14074
 X313.20561 Y384.08477
 X316.58529 Y394.51102
 X325.37403 Y421.52204
 X328.52783 Y412.34664
 X329.98488 Y408.44358
 X331.75665 Y404.30223
 X333.56218 Y400.52654
G0 Z25.00000
 X340.00000 Y424.50883
G1 Z0.00000
 X342.73679 Y424.54825
 X345.58490 Y424.65935
 X348.14754 Y424.81883
 X349.88477 Y425.00883
 X353.26955 Y425.50000
 X362.57999 Y397.02855
 X366.12101 Y386.08329
 X369.03798 Y376.80308
 X371.58426 Y368.53471
 X371.49039 Y368.15706
 X370.49790 Y368.03010
 X365.58867 Y370.99322
 X360.32331 Y374.46501
 X355.31300 Y378.19041
 X345.88722 Y387.10093
 X337.73865 Y397.91752
 X331.61139 Y409.50543
 X328.23487 Y420.70809
 X327.29276 Y425.89145
 X330.39638 Y425.19572
 X332.02085 Y424.92777
 X334.49769 Y424.70696
 X337.28380 Y424.55653
G0 Z25.00000
 X308.48975 Y437.01006
G1 Z0.00000
 X310.48335 Y435.24709
 X313.15696 Y433.23258
 X316.03138 Y431.29489
 X318.66919 Y429.75346
 X324.78317 Y426.48682
 X315.39796 Y397.58312
 X311.77042 Y386.47239
 X308.64994 Y377.05016
 X305.84227 Y368.65489
 X305.60521 Y368.27188
 X304.85551 Y368.43472
 X301.76951 Y376.84017
 X298.99703 Y385.00749
 X297.41795 Y390.97554
 X296.38642 Y398.44831
 X296.08396 Y408.14740
 X296.44116 Y417.74615
 X297.52236 Y424.83223
 X298.94350 Y429.94378
 X300.87921 Y435.38913
 X302.91524 Y440.39070
 X303.83529 Y441.00000
 X304.20505 Y440.86782
 X305.44551 Y439.82795
 X306.88919 Y438.53899
G0 Z25.00000
 X295.01364 Y461.92806
G1 Z0.00000
 X295.61933 Y459.39594
 X296.61976 Y456.21954
 X297.81530 Y452.95250
 X299.03804 Y450.10501
 X300.16772 Y447.63472
 X301.07589 Y445.52078
 X301.82118 Y443.69293
 X301.76734 Y443.49150
 X297.10465 Y439.97609
 X276.00412 Y424.71889
 X253.03796 Y408.13178
 X252.63040 Y408.00000
 X252.12976 Y408.64306
 X254.01739 Y415.86846
 X256.13935 Y423.07742
 X258.26340 Y428.89764
 X263.76942 Y439.71809
 X271.11650 Y449.95583
 X279.55087 Y458.68838
 X288.30260 Y464.98799
 X290.28545 Y466.08850
 X292.00083 Y466.96994
 X293.46467 Y467.67140
 X293.70379 Y467.62954
 X293.84292 Y467.38098
 X294.20492 Y465.83837
 X294.59934 Y464.02544
G0 Z25.00000
 X299.20754 Y496.00869
G1 Z0.00000
 X301.91507 Y496.00000
 X299.06628 Y489.97624
 X297.88610 Y487.20078
 X296.69537 Y483.81956
 X295.66871 Y480.39229
 X294.99552 Y477.47624
 X293.77354 Y471.00000
 X232.62582
 X235.56291 Y474.09781
 X240.63015 Y478.49872
 X248.67748 Y483.81954
 X257.35146 Y488.73330
 X264.66411 Y491.94589
 X271.81544 Y494.19087
 X278.89157 Y495.72486
 X285.56561 Y496.49454
 X291.50000 Y496.43610
 X293.61282 Y496.27515
 X295.82659 Y496.13783
 X297.83015 Y496.03998
G0 Z25.00000
 X314.27011 Y545.84399
G1 Z0.00000
 X317.61104 Y535.41720
 X320.37517 Y526.58959
 X322.80912 Y518.69159
 X322.73782 Y518.40449
 X322.49547 Y518.37916
 X321.21186 Y519.23390
 X319.70240 Y520.31315
 X317.96771 Y521.65268
 X306.23604 Y528.91218
 X291.81033 Y534.20036
 X276.28292 Y537.06710
 X261.25000 Y537.10591
 X258.47001 Y536.90021
 X256.12969 Y536.85352
 X254.26994 Y536.92025
 X254.00000 Y537.20628
 X254.95981 Y539.44539
 X263.70135 Y547.61644
 X272.51850 Y555.35716
 X279.30205 Y560.42541
 X285.89165 Y564.43966
 X293.87933 Y568.65719
 X301.53285 Y572.32395
 X304.50000 Y572.97834
 X305.02592 Y572.61155
 X307.78247 Y565.00876
 X310.83562 Y556.24837
G0 Z25.00000
 X317.39309 Y566.94313
G1 Z0.00000
 X329.96650 Y556.85432
 X340.16240 Y545.04762
 X347.57789 Y532.00751
 X351.90943 Y518.25910
 X352.73839 Y514.01820
 X348.61919 Y514.75910
 X344.86935 Y515.24382
 X340.56667 Y515.44025
 X335.90350 Y515.35081
 X331.06031 Y514.97159
 X326.62063 Y514.50000
 X317.32640 Y543.00000
 X313.76164 Y553.94548
 X310.75763 Y563.20156
 X308.05410 Y571.55093
 X308.01609 Y571.75000
 X308.47722 Y572.10618
 X310.25075 Y571.36324
 X313.10055 Y569.73579
G0 Z25.00000
 X294.81287 Y605.64740
G1 Z0.00000
 X298.33470 Y594.71004
 X301.30128 Y585.34411
 X303.88835 Y577.07615
 X304.00000 Y576.34411
 X303.71472 Y575.84931
 X301.69878 Y574.73180
 X299.16857 Y573.48676
 X296.16604 Y572.19040
 X287.17721 Y567.83041
 X277.76731 Y561.91387
 X268.54252 Y554.87113
 X260.10148 Y547.11865
 X250.70297 Y537.64876
 X251.26294 Y551.07438
 X252.38996 Y564.59819
 X254.59635 Y576.80874
 X258.07664 Y588.56054
 X263.03582 Y600.69924
 X267.98970 Y610.16739
 X275.10943 Y621.62233
 X282.60436 Y632.79227
 X284.89690 Y634.00000
 X285.28336 Y633.72638
 X288.11036 Y625.67142
 X291.23790 Y616.51839
G0 Z25.00000
 X280.05163 Y632.25000
G1 Z0.00000
 X270.56110 Y618.71970
 X262.89101 Y605.17168
 X256.88982 Y591.29856
 X252.39840 Y576.79660
 X251.07264 Y570.81239
 X250.21724 Y565.24275
 X249.66618 Y558.80467
 X249.27851 Y549.89906
 X248.99587 Y539.61894
 X249.10517 Y535.66362
 X249.58769 Y533.68740
 X250.62598 Y532.77388
 X252.87105 Y531.69762
 X273.23329 Y517.09451
 X292.62943 Y503.10165
 X296.78029 Y499.61234
 X296.98171 Y499.06306
 X296.64838 Y498.69994
 X295.29690 Y498.60706
 X292.28029 Y498.78327
 X278.18699 Y497.90041
 X262.58149 Y493.32121
 X247.46798 Y485.83121
 X234.81370 Y476.22897
 X229.76537 Y471.50684
 X226.27618 Y475.50342
 X219.99412 Y483.74710
 X213.96201 Y493.83648
 X208.66451 Y504.84181
 X204.58775 Y515.86431
 X201.85427 Y525.86326
 X200.02282 Y535.58423
 X198.96798 Y545.86643
 X198.57808 Y557.57846
 X198.50000 Y572.65693
 X204.48564 Y580.07846
 X216.58668 Y593.51692
 X230.17859 Y605.69051
 X245.06638 Y616.42849
 X261.04063 Y625.57606
 X266.92338 Y628.45424
 X273.37926 Y631.43127
 X279.28140 Y634.02866
 X281.83341 Y634.91164
 X281.88498 Y634.84167
 X281.44754 Y634.16623
 X280.83970 Y633.29911
G0 Z25.00000
 X265.70238 Y695.25000
G1 Z0.00000
 X267.74729 Y688.95992
 X270.56148 Y680.30419
 X273.60215 Y670.95226
 X276.42360 Y662.27491
 X278.94431 Y654.45013
 X281.06818 Y647.69580
 X282.88635 Y641.80205
 X283.00000 Y641.04509
 X282.69711 Y640.84472
 X281.00847 Y641.62380
 X278.82163 Y642.81492
 X276.22034 Y644.42608
 X260.42138 Y653.40607
 X242.17756 Y661.46774
 X222.89970 Y668.06988
 X203.97937 Y672.66646
 X194.97974 Y674.39167
 X204.73987 Y680.82834
 X214.50904 Y686.71788
 X228.02312 Y693.83600
 X241.81225 Y700.50151
 X252.50000 Y704.94166
 X255.60426 Y706.08002
 X258.30533 Y707.04722
 X260.64057 Y707.86707
 X261.02877 Y707.95138
 X261.30676 Y707.77696
 X262.61976 Y704.24041
 X264.07515 Y700.13502
G0 Z25.00000
 X249.08249 Y746.42694
G1 Z0.00000
 X253.24693 Y733.46072
 X256.69653 Y722.48730
 X259.74102 Y712.65873
 X259.65843 Y712.32510
 X259.35758 Y712.25558
 X257.67632 Y712.85189
 X255.69215 Y713.62570
 X253.40372 Y714.61133
 X233.04641 Y722.43572
 X210.10715 Y728.85665
 X186.53131 Y733.42664
 X164.25000 Y735.68103
 X159.55302 Y735.97305
 X155.59844 Y736.33817
 X152.27561 Y736.73107
 X152.00000 Y737.04336
 X152.67589 Y738.28536
 X163.66450 Y745.34144
 X174.71469 Y752.17477
 X184.50000 Y757.76492
 X198.64058 Y764.88649
 X216.78092 Y772.96507
 X235.61500 Y780.90241
 X237.82778 Y780.49092
 X238.01820 Y780.18975
 X241.26905 Y770.35546
 X244.86941 Y759.38987
G0 Z25.00000
 X250.28226 Y776.85827
G1 Z0.00000
 X272.57128 Y767.12205
 X294.35708 Y755.15666
 X314.86161 Y741.42690
 X333.31336 Y726.40818
 X338.20071 Y722.01402
 X330.76252 Y713.75701
 X317.16213 Y697.50247
 X305.80526 Y681.41368
 X296.48900 Y665.18163
 X289.01320 Y648.50000
 X288.07741 Y646.14880
 X287.18893 Y644.04918
 X286.40917 Y642.30837
 X286.06789 Y641.77382
 X285.69757 Y641.84182
 X282.90132 Y649.69927
 X279.76583 Y658.80905
 X276.15909 Y669.77382
 X271.68808 Y683.57143
 X265.79931 Y701.68796
 X259.56682 Y720.82537
 X253.93527 Y738.07880
 X248.97646 Y753.33600
 X244.79973 Y766.37537
 X241.13998 Y777.92250
 X241.00000 Y778.82880
 X241.35079 Y779.57880
 X242.14327 Y779.77551
 X244.01903 Y779.22844
G0 Z25.00000
 X185.00000 Y731.51145
G1 Z0.00000
 X201.97115 Y728.47621
 X220.07495 Y723.99293
 X237.44145 Y718.59610
 X252.13964 Y712.79974
 X259.06681 Y709.70235
 X247.97314 Y705.35903
 X236.49976 Y700.48215
 X224.35622 Y694.56673
 X212.59186 Y688.16018
 X202.26961 Y681.80207
 X191.76033 Y674.87564
 X181.20649 Y675.93782
 X159.27603 Y677.02858
 X135.87880 Y676.02987
 X112.10465 Y673.03520
 X89.03847 Y668.13999
 X84.80531 Y667.09307
 X81.24255 Y666.30916
 X78.22437 Y665.71361
 X78.00000 Y665.89907
 X78.14656 Y666.31932
 X81.19151 Y670.14262
 X84.69969 Y674.47353
 X88.86471 Y679.50035
 X99.28097 Y691.28699
 X111.26902 Y703.58738
 X123.71185 Y715.31434
 X135.50000 Y725.36391
 X146.50000 Y734.21171
 X160.00000 Y733.67326
 X166.00607 Y733.34941
 X172.91250 Y732.81611
 X179.62858 Y732.17273
G0 Z25.00000
 X178.47761 Y673.92874
G1 Z0.00000
 X183.08019 Y673.51231
 X186.97898 Y673.13119
 X190.44656 Y672.77464
 X190.59881 Y672.68905
 X190.64400 Y672.52008
 X190.29002 Y669.76491
 X189.87100 Y666.65579
 X189.34596 Y663.00000
 X187.81392 Y645.12965
 X188.10073 Y624.32717
 X190.00668 Y603.55600
 X193.41713 Y585.77317
 X194.31001 Y582.20633
 X195.03998 Y579.17718
 X195.67091 Y576.48579
 X195.63571 Y576.34064
 X195.43010 Y576.31590
 X177.31253 Y589.41278
 X159.61733 Y602.24892
 X138.08073 Y617.98849
 X128.77187 Y624.75958
 X117.84318 Y632.69728
 X106.50000 Y640.92410
 X95.70830 Y648.75738
 X86.48805 Y655.47610
 X78.36109 Y661.41501
 X77.69335 Y661.96549
 X77.93107 Y662.92741
 X89.22119 Y665.88771
 X101.34485 Y668.73652
 X113.00000 Y670.97482
 X129.88436 Y673.33140
 X146.29480 Y674.60337
 X162.42720 Y674.79895
G0 Z25.00000
 X215.26204 Y667.88963
G1 Z0.00000
 X230.78901 Y663.40371
 X246.42431 Y657.48832
 X261.34586 Y650.49018
 X274.72762 Y642.75636
 X282.95524 Y637.47246
 X276.72762 Y635.08830
 X270.40190 Y632.44969
 X262.77691 Y628.85291
 X255.08224 Y624.91827
 X248.50000 Y621.21601
 X236.42371 Y613.11412
 X223.35869 Y602.52174
 X211.32925 Y591.25719
 X202.50395 Y581.13358
 X200.99175 Y579.20573
 X199.66528 Y577.63657
 X198.52924 Y576.38060
 X198.29078 Y576.37589
 X197.34920 Y578.08242
 X194.97054 Y588.80469
 X192.82270 Y599.39209
 X191.49467 Y607.70046
 X190.26103 Y622.54293
 X190.09272 Y640.73106
 X190.83326 Y658.13956
 X192.55084 Y669.83817
 X193.04057 Y671.14450
 X193.76851 Y671.72913
 X195.08044 Y671.84531
 X198.29118 Y671.46596
 X201.05571 Y671.00845
 X205.42501 Y670.12238
 X210.37686 Y669.03892
G0 Z25.00000
 X165.59722 Y595.25000
G1 Z0.00000
 X194.05576 Y574.50000
 X181.77788 Y573.28004
 X164.13387 Y570.79768
 X146.60271 Y566.87268
 X129.50824 Y561.58662
 X113.17169 Y555.02938
 X109.56237 Y553.45017
 X106.44815 Y552.19425
 X103.78414 Y551.19581
 X103.38236 Y551.28431
 X103.01903 Y553.13068
 X108.66229 Y566.38129
 X114.75097 Y579.73338
 X120.70454 Y591.31038
 X124.86407 Y598.49225
 X130.16354 Y606.94368
 X135.72230 Y615.50715
 X136.63284 Y616.00000
 X137.00350 Y615.88102
 X145.34979 Y609.90469
 X154.64958 Y603.20572
G0 Z25.00000
 X133.00000 Y615.67993
G1 Z0.00000
 X132.93239 Y615.44735
 X131.36053 Y612.97759
 X129.55840 Y610.18467
 X127.41882 Y606.92993
 X121.54632 Y597.15681
 X114.26525 Y583.18014
 X107.43934 Y568.90652
 X103.03248 Y558.10261
 X101.15278 Y553.15716
 X99.73923 Y550.23580
 X98.36560 Y548.37567
 X96.72675 Y547.10261
 X89.35843 Y542.69525
 X78.82614 Y535.66433
 X68.15457 Y528.15152
 X60.00833 Y521.93754
 X50.09392 Y513.40987
 X38.81166 Y502.62364
 X28.09878 Y491.54814
 X20.00000 Y482.16317
 X13.50000 Y474.03827
 X13.15998 Y478.26914
 X13.11636 Y485.24491
 X14.16788 Y498.19681
 X15.72519 Y512.35856
 X17.58036 Y524.99176
 X19.67733 Y535.99469
 X22.64880 Y549.15238
 X25.72927 Y561.44636
 X27.92579 Y568.30480
 X32.67836 Y574.02948
 X52.96178 Y585.90883
 X74.90930 Y597.35154
 X94.00000 Y605.37465
 X105.22924 Y609.08078
 X118.59887 Y612.85385
 X132.11697 Y616.36580
G0 Z25.00000
 X96.87262 Y645.29268
G1 Z0.00000
 X105.69492 Y638.88028
 X114.31907 Y632.60172
 X121.72954 Y627.19794
 X125.89442 Y624.14651
 X133.28885 Y618.70766
 X118.39442 Y614.95294
 X111.85263 Y613.20218
 X104.49711 Y611.03838
 X97.46540 Y608.81471
 X92.00000 Y606.89937
 X79.87751 Y601.88495
 X65.17475 Y594.87509
 X50.88273 Y587.41172
 X40.12646 Y580.99895
 X36.51053 Y578.68775
 X33.41671 Y576.79097
 X30.71130 Y575.18560
 X30.44758 Y575.21909
 X30.26115 Y576.10204
 X34.54689 Y587.11415
 X38.91378 Y597.92070
 X43.00992 Y607.31638
 X45.43057 Y612.42766
 X48.52928 Y618.59294
 X51.77220 Y624.78526
 X54.64943 Y630.00000
 X60.33864 Y639.62782
 X66.93203 Y650.10477
 X73.64674 Y660.44244
 X74.67676 Y661.00000
 X75.08999 Y660.86880
 X81.43130 Y656.38597
 X88.54001 Y651.31468
G0 Z25.00000
M5 (stop spindle)
G04 P3 (wait for 3 seconds)
G0 Z25.00000
M2 (end program)
